; generated by PrusaSlicer 2.8.0 on 2024-10-04 at 13:39:29 UTC


;
;
; 

; external perimeters extrusion width = 0.60mm
; perimeters extrusion width = 0.50mm
; infill extrusion width = 0.50mm
; solid infill extrusion width = 0.50mm
; top infill extrusion width = 0.45mm
; support material extrusion width = 0.38mm
; first layer extrusion width = 0.42mm

; external perimeters extrusion width = 0.60mm
; perimeters extrusion width = 0.50mm
; infill extrusion width = 0.50mm
; solid infill extrusion width = 0.50mm
; top infill extrusion width = 0.45mm
; support material extrusion width = 0.38mm
; first layer extrusion width = 0.42mm

M73 P0 R27
M73 Q0 S27
M201 X1000 Y1000 Z200 E5000 ; sets maximum accelerations, mm/sec^2
M203 X200 Y200 Z12 E120 ; sets maximum feedrates, mm / sec
M204 S1250 T1250 ; sets acceleration (S) and retract acceleration (R), mm/sec^2
M205 X8.00 Y8.00 Z0.40 E4.50 ; sets the jerk limits, mm/sec
M205 S0 T0 ; sets the minimum extruding and travel feed rate, mm/sec

; printing object hatch-peg-Peg.stl id:0 copy 0
; stop printing object hatch-peg-Peg.stl id:0 copy 0
; printing object hatch-nut.stl id:1 copy 0
; stop printing object hatch-nut.stl id:1 copy 0

;TYPE:Custom
M862.3 P "MK3" ; printer model check
M862.1 P0.4 ; nozzle diameter check
M115 U3.14.0 ; tell printer latest fw version
G90 ; use absolute coordinates
M83 ; extruder relative mode
M104 S200 ; set extruder temp
M140 S0 ; set bed temp
M190 S0 ; wait for bed temp
M109 S200 ; wait for extruder temp
G28 W ; home all without mesh bed level
G80 X96.6419 Y63.1625 W61.828 H32.4814 ; mesh bed levelling

G1 Z0.2 F720
G1 Y-3 F1000 ; go outside print area
G92 E0
G1 X60 E9 F1000 ; intro line
G1 X100 E12.5 F1000 ; intro line

G92 E0
M221 S95

; Don't change E values below. Excessive value can damage the printer.

M907 E538 ; set extruder motor current
G21 ; set units to millimeters
G90 ; use absolute coordinates
M83 ; use relative distances for extrusion
; Filament gcode
M107
;LAYER_CHANGE
;Z:0.2
;HEIGHT:0.2
G1 E-.8 F2100
G1 Z.6 F720
G1 X97.471 Y64.103 F10800
G1 Z.2 F720
G1 E.8 F2100
M204 S800
;TYPE:Skirt/Brim
;WIDTH:0.42
G1 F1200
G1 X97.582 Y63.992 E.00492
G1 X99.129 Y63.351 E.0525
G1 X126.507 Y63.352 E.85842
G1 X147.538 Y63.959 E.65969
G1 X148.569 Y64.251 E.0336
G1 X150.936 Y65.617 E.08569
G1 X151.737 Y66.419 E.03554
G1 X157.988 Y77.246 E.39199
G1 X158.281 Y78.34 E.03551
G1 X158.281 Y81.073 E.08569
G1 X157.988 Y82.167 E.03551
G1 X151.737 Y92.994 E.39199
G1 X150.936 Y93.796 E.03554
G1 X148.569 Y95.162 E.08569
G1 X147.475 Y95.455 E.03551
G1 X99.118 Y95.263 E1.51621
G1 X97.582 Y94.622 E.05219
G1 X97.471 Y94.512 E.0049
G1 X96.83 Y92.964 E.05253
G1 X96.83 Y65.65 E.85641
G1 X97.448 Y64.158 E.05063
M204 S1000
;WIPE_START
G1 F8640
G1 X97.471 Y64.103 E-.01377
G1 X97.582 Y63.992 E-.03625
G1 X99.129 Y63.351 E-.38666
G1 X100.702 Y63.351 E-.36332
;WIPE_END
G1 Z.6 F720
G1 X127.14 Y77.553 F10800
G1 Z.2 F720
G1 E.8 F2100
M204 S800
G1 F1200
G1 X132.317 Y68.586 E.32465
G1 X133.09 Y67.686 E.0372
M73 P1 R27
M73 Q1 S27
G1 X134.039 Y67.004 E.03664
G1 X135.982 Y66.433 E.0635
G1 X146.481 Y66.439 E.32919
G1 X147.622 Y66.671 E.03651
G1 X148.678 Y67.162 E.03651
G1 X150.035 Y68.449 E.05864
G1 X155.341 Y77.611 E.33196
G1 X155.816 Y79.577 E.06342
G1 X155.7 Y80.741 E.03668
G1 X155.308 Y81.86 E.03718
G1 X150.131 Y90.827 E.32465
G1 X149.358 Y91.727 E.0372
G1 X148.408 Y92.409 E.03667
G1 X146.468 Y92.98 E.06341
G1 X135.979 Y92.98 E.32888
G1 X134.153 Y92.464 E.05949
G1 X133.125 Y91.758 E.0391
G1 X132.317 Y90.827 E.03865
G1 X127.106 Y81.802 E.32676
G1 X126.631 Y79.836 E.06342
G1 X126.747 Y78.672 E.03668
G1 X127.12 Y77.61 E.03529
M204 S1000
G1 X127.12 Y77.61 F10800
G1 X127.472 Y77.734
M204 S800
G1 F1200
G1 X127.475 Y77.727 E.00024
G1 X132.635 Y68.79 E.32357
G1 X133.328 Y67.979 E.03345
G1 X134.233 Y67.329 E.03494
G1 X136.008 Y66.81 E.05798
G1 X146.462 Y66.816 E.32778
G1 X147.523 Y67.036 E.03397
G1 X148.489 Y67.49 E.03347
G1 X149.754 Y68.703 E.05495
G1 X155.001 Y77.777 E.32865
G1 X155.438 Y79.572 E.05792
G1 X155.327 Y80.681 E.03495
G1 X154.972 Y81.686 E.03342
G1 X149.813 Y90.623 E.32355
G1 X149.119 Y91.434 E.03347
G1 X148.214 Y92.084 E.03494
G1 X146.441 Y92.603 E.05792
G1 X136.006 Y92.603 E.32718
G1 X134.288 Y92.111 E.05603
G1 X133.361 Y91.463 E.03546
G1 X132.635 Y90.623 E.03481
G1 X127.446 Y81.637 E.32535
G1 X127.01 Y79.841 E.05795
G1 X127.12 Y78.732 E.03494
G1 X127.452 Y77.791 E.03129
M204 S1000
G1 X127.452 Y77.791 F10800
G1 X127.805 Y77.914
M204 S800
G1 F1200
G1 X127.81 Y77.9 E.00047
G1 X132.952 Y68.994 E.32244
G1 X133.599 Y68.243 E.03108
G1 X134.425 Y67.655 E.03179
G1 X136.035 Y67.187 E.05257
G1 X146.443 Y67.193 E.32634
G1 X147.383 Y67.387 E.03009
G1 X148.3 Y67.818 E.03177
G1 X149.472 Y68.955 E.0512
G1 X154.661 Y77.942 E.32538
G1 X155.06 Y79.568 E.05249
G1 X154.964 Y80.578 E.03181
G1 X154.637 Y81.513 E.03106
G1 X149.495 Y90.419 E.32244
G1 X148.849 Y91.17 E.03106
G1 X148.022 Y91.758 E.03182
G1 X146.414 Y92.226 E.05251
G1 X136.033 Y92.226 E.32549
G1 X134.425 Y91.758 E.05251
G1 X133.599 Y91.17 E.03179
G1 X132.952 Y90.419 E.03108
G1 X127.786 Y81.471 E.32396
G1 X127.388 Y79.845 E.05249
G1 X127.484 Y78.835 E.03181
G1 X127.786 Y77.971 E.0287
M204 S1000
G1 X127.786 Y77.971 F10800
G1 X128.139 Y78.093
M204 S800
G1 F1200
G1 X128.146 Y78.072 E.00069
G1 X133.27 Y69.198 E.32129
G1 X133.868 Y68.508 E.02863
G1 X134.616 Y67.982 E.02867
G1 X136.061 Y67.564 E.04716
G1 X146.422 Y67.571 E.32486
G1 X147.283 Y67.751 E.02758
G1 X148.109 Y68.144 E.02868
G1 X149.159 Y69.166 E.04594
G1 X154.322 Y78.108 E.32375
G1 X154.681 Y79.567 E.04711
G1 X154.6 Y80.478 E.02868
G1 X154.301 Y81.341 E.02864
G1 X149.178 Y90.215 E.32128
G1 X148.58 Y90.905 E.02863
G1 X147.831 Y91.431 E.0287
G1 X146.388 Y91.849 E.0471
G1 X136.059 Y91.849 E.32386
G1 X134.616 Y91.431 E.0471
G1 X133.868 Y90.905 E.02867
G1 X133.27 Y90.215 E.02863
G1 X128.126 Y81.305 E.32258
G1 X127.766 Y79.846 E.04712
G1 X127.848 Y78.935 E.02868
G1 X128.119 Y78.15 E.02604
M73 Q2 S27
M204 S1000
G1 X128.119 Y78.15 F10800
M73 P2 R27
G1 X128.473 Y78.271
M204 S800
G1 F1200
G1 X128.482 Y78.245 E.00086
G1 X133.587 Y69.403 E.32012
G1 X134.136 Y68.774 E.02618
G1 X134.805 Y68.309 E.02555
G1 X136.087 Y67.941 E.04182
G1 X146.402 Y67.948 E.32342
G1 X147.181 Y68.115 E.02498
G1 X147.917 Y68.47 E.02562
G1 X148.845 Y69.376 E.04066
G1 X153.982 Y78.273 E.32212
G1 X154.303 Y79.567 E.0418
G1 X154.235 Y80.378 E.02552
G1 X153.965 Y81.168 E.02618
G1 X148.86 Y90.01 E.32012
G1 X148.311 Y90.639 E.02618
G1 X147.642 Y91.104 E.02555
G1 X146.362 Y91.472 E.04176
G1 X136.086 Y91.472 E.3222
G1 X134.805 Y91.104 E.04179
G1 X134.136 Y90.639 E.02555
G1 X133.587 Y90.01 E.02618
G1 X128.466 Y81.14 E.32114
G1 X128.144 Y79.846 E.04181
G1 X128.212 Y79.034 E.02555
G1 X128.454 Y78.327 E.02343
M204 S1000
G1 X128.454 Y78.327 F10800
G1 X128.807 Y78.449
M204 S800
G1 F1200
G1 X128.818 Y78.418 E.00103
G1 X133.905 Y69.607 E.319
G1 X134.371 Y69.07 E.02229
G1 X134.995 Y68.637 E.02381
G1 X136.113 Y68.318 E.03645
G1 X146.381 Y68.325 E.32195
G1 X147.077 Y68.478 E.02234
G1 X147.723 Y68.795 E.02256
G1 X148.531 Y69.587 E.03548
G1 X153.642 Y78.439 E.32049
G1 X153.925 Y79.566 E.03643
G1 X153.861 Y80.323 E.02382
G1 X153.63 Y80.995 E.02228
G1 X148.543 Y89.806 E.319
G1 X148.077 Y90.343 E.02229
G1 X147.453 Y90.776 E.02381
G1 X146.336 Y91.095 E.03642
G1 X136.112 Y91.095 E.32057
G1 X134.995 Y90.776 E.03642
G1 X134.371 Y90.343 E.02381
G1 X133.905 Y89.806 E.02229
G1 X128.805 Y80.974 E.31977
G1 X128.523 Y79.847 E.03643
G1 X128.586 Y79.09 E.02382
G1 X128.787 Y78.506 E.01937
M204 S1000
G1 X128.787 Y78.506 F10800
G1 X129.141 Y78.626
M204 S800
G1 F1200
G1 X129.154 Y78.59 E.0012
G1 X134.222 Y69.812 E.31781
G1 X134.638 Y69.338 E.01977
G1 X135.181 Y68.966 E.02064
G1 X136.139 Y68.695 E.03122
G1 X146.359 Y68.702 E.32044
G1 X146.971 Y68.84 E.01967
G1 X147.527 Y69.118 E.01949
G1 X148.217 Y69.797 E.03035
G1 X153.303 Y78.606 E.31893
G1 X153.547 Y79.569 E.03115
G1 X153.496 Y80.226 E.02066
G1 X153.294 Y80.823 E.01976
G1 X148.226 Y89.601 E.31781
G1 X147.81 Y90.075 E.01977
G1 X147.266 Y90.447 E.02066
G1 X146.31 Y90.718 E.03116
G1 X136.138 Y90.718 E.31894
G1 X135.181 Y90.447 E.03119
G1 X134.638 Y90.075 E.02064
G1 X134.222 Y89.601 E.01977
G1 X129.145 Y80.807 E.31838
G1 X128.901 Y79.844 E.03115
G1 X128.951 Y79.187 E.02066
G1 X129.122 Y78.683 E.01669
M204 S1000
G1 X129.122 Y78.683 F10800
G1 X129.477 Y78.801
M204 S800
G1 F1200
G1 X129.49 Y78.762 E.00129
G1 X134.538 Y70.017 E.3166
G1 X134.903 Y69.607 E.01721
G1 X135.366 Y69.296 E.01749
G1 X136.164 Y69.072 E.02599
G1 X146.337 Y69.079 E.31897
G1 X146.861 Y69.201 E.01687
G1 X147.329 Y69.44 E.01648
G1 X147.903 Y70.008 E.02532
G1 X152.963 Y78.772 E.3173
G1 X153.169 Y79.575 E.02599
M73 P2 R26
G1 X153.131 Y80.131 E.01747
G1 X152.957 Y80.651 E.01719
G1 X147.909 Y89.396 E.3166
G1 X147.545 Y89.806 E.01719
G1 X147.082 Y90.117 E.01749
G1 X146.284 Y90.341 E.02599
G1 X136.163 Y90.341 E.31734
G1 X135.366 Y90.117 E.02596
G1 X134.903 Y89.806 E.01749
G1 X134.538 Y89.396 E.01721
G1 X129.484 Y80.641 E.31696
G1 X129.279 Y79.838 E.02599
G1 X129.317 Y79.282 E.01747
G1 X129.458 Y78.858 E.01401
M204 S1000
G1 X129.458 Y78.858 F10800
G1 X129.813 Y78.974
M204 S800
G1 F1200
G1 X129.827 Y78.932 E.00139
G1 X134.855 Y70.223 E.31531
G1 X135.166 Y69.878 E.01456
G1 X135.547 Y69.628 E.01429
G1 X136.189 Y69.449 E.0209
G1 X146.313 Y69.456 E.31743
G1 X146.748 Y69.562 E.01404
G1 X147.129 Y69.761 E.01348
G1 X147.589 Y70.218 E.02033
G1 X152.624 Y78.938 E.31571
G1 X152.791 Y79.583 E.02089
M73 P3 R26
M73 Q3 S27
G1 X152.764 Y80.039 E.01432
G1 X152.621 Y80.481 E.01457
G1 X147.593 Y89.19 E.31531
G1 X147.282 Y89.535 E.01456
G1 X146.901 Y89.785 E.01429
G1 X146.259 Y89.964 E.0209
G1 X136.189 Y89.964 E.31574
G1 X135.547 Y89.785 E.0209
G1 X135.166 Y89.535 E.01429
G1 X134.855 Y89.19 E.01456
G1 X129.823 Y80.475 E.31553
G1 X129.657 Y79.83 E.02088
G1 X129.683 Y79.374 E.01432
G1 X129.795 Y79.031 E.01131
M204 S1000
G1 X129.795 Y79.031 F10800
G1 X130.164 Y79.102
M204 S800
G1 F1200
G1 X135.171 Y70.431 E.31394
G1 X135.725 Y69.961 E.02278
G1 X136.214 Y69.826 E.01591
G1 X146.288 Y69.833 E.31586
G1 X146.925 Y70.079 E.02141
G1 X147.275 Y70.428 E.0155
G1 X152.285 Y79.105 E.31415
G1 X152.413 Y79.596 E.01591
G1 X152.283 Y80.311 E.02279
G1 X147.277 Y88.982 E.31393
G1 X146.723 Y89.452 E.02278
G1 X146.234 Y89.587 E.01591
G1 X136.214 Y89.587 E.31417
G1 X135.725 Y89.452 E.01591
G1 X135.171 Y88.982 E.02278
G1 X130.162 Y80.308 E.31406
G1 X130.034 Y79.817 E.01591
G1 X130.153 Y79.161 E.0209
M204 S1000
G1 X130.153 Y79.161 F10800
G1 X130.5 Y79.274
M204 S800
G1 F1200
G1 X135.488 Y70.636 E.31275
G1 X135.903 Y70.295 E.01684
G1 X136.239 Y70.204 E.01091
G1 X146.261 Y70.21 E.31423
G1 X146.718 Y70.395 E.01546
G1 X146.961 Y70.637 E.01075
G1 X151.946 Y79.272 E.31262
G1 X152.035 Y79.608 E.0109
M73 Q3 S26
G1 X151.947 Y80.139 E.01688
G1 X146.96 Y88.777 E.31273
G1 X146.544 Y89.118 E.01687
G1 X146.209 Y89.209 E.01088
G1 X136.238 Y89.209 E.31263
G1 X135.903 Y89.118 E.01088
G1 X135.488 Y88.777 E.01684
G1 X130.501 Y80.141 E.31268
G1 X130.412 Y79.805 E.0109
G1 X130.49 Y79.333 E.015
M204 S1000
G1 X130.49 Y79.333 F10800
G1 X130.838 Y79.442
M204 S800
G1 F1200
G1 X135.802 Y70.845 E.31126
G1 X136.263 Y70.581 E.01666
G1 X146.372 Y70.63 E.31696
G1 X146.647 Y70.847 E.01098
G1 X151.607 Y79.44 E.31109
G1 X151.609 Y79.97 E.01662
G1 X146.645 Y88.568 E.31129
G1 X146.373 Y88.782 E.01085
G1 X146.185 Y88.832 E.0061
G1 X136.075 Y88.782 E.317
G1 X135.802 Y88.568 E.01088
G1 X130.84 Y79.973 E.31118
G1 X130.839 Y79.502 E.01477
M204 S1000
G1 X130.839 Y79.502 F10800
G1 X131.179 Y79.607
M204 S800
G1 F1200
G1 X136.115 Y71.057 E.30955
G1 X136.24 Y70.971 E.00476
G1 X146.208 Y70.971 E.31254
G1 X146.332 Y71.057 E.00473
G1 X151.268 Y79.607 E.30955
G1 X151.268 Y79.806 E.00624
G1 X146.332 Y88.356 E.30955
G1 X146.208 Y88.442 E.00473
G1 X136.24 Y88.442 E.31254
G1 X136.115 Y88.356 E.00476
G1 X131.179 Y79.806 E.30955
G1 X131.179 Y79.667 E.00436
M204 S1000
;WIPE_START
G1 F8640
G1 X131.179 Y79.607 E-.01385
G1 X132.881 Y76.658 E-.78615
;WIPE_END
G1 Z.6 F720
G1 X123.299 Y79.489 F10800
G1 Z.2 F720
G1 E.8 F2100
M204 S800
G1 F1200
G1 X123.208 Y80.688 E.0377
G1 X122.987 Y81.853 E.03718
G1 X122.429 Y83.498 E.05446
G1 X121.886 Y84.571 E.03771
G1 X121.236 Y85.563 E.03719
G1 X120.091 Y86.869 E.05446
G1 X119.179 Y87.653 E.03771
G1 X118.199 Y88.321 E.03719
G1 X116.642 Y89.088 E.05442
G1 X115.516 Y89.459 E.03717
G1 X114.339 Y89.706 E.03771
G1 X112.604 Y89.819 E.05451
G1 X111.405 Y89.729 E.0377
G1 X110.24 Y89.508 E.03718
G1 X108.595 Y88.949 E.05447
G1 X107.522 Y88.407 E.03769
G1 X106.531 Y87.757 E.03716
M73 P4 R26
G1 X105.225 Y86.612 E.05446
G1 X104.441 Y85.7 E.03771
M73 Q4 S26
G1 X103.773 Y84.72 E.03719
G1 X103.005 Y83.163 E.05443
G1 X102.634 Y82.037 E.03717
G1 X102.388 Y80.86 E.0377
G1 X102.274 Y79.125 E.05452
G1 X102.365 Y77.926 E.0377
G1 X102.586 Y76.761 E.03718
G1 X103.144 Y75.116 E.05446
G1 X103.687 Y74.043 E.03771
G1 X104.337 Y73.051 E.03719
G1 X105.481 Y71.746 E.05441
G1 X106.38 Y70.972 E.0372
G1 X107.373 Y70.294 E.0377
G1 X108.931 Y69.526 E.05446
G1 X110.053 Y69.156 E.03704
G1 X111.224 Y68.911 E.03751
G1 X112.568 Y68.797 E.04229
G1 X113.424 Y68.826 E.02685
G1 X114.337 Y68.909 E.02874
G1 X115.35 Y69.11 E.03238
G1 X116.977 Y69.665 E.0539
G1 X118.035 Y70.198 E.03714
G1 X119.041 Y70.856 E.03769
G1 X120.348 Y72.002 E.0545
G1 X121.121 Y72.9 E.03715
G1 X121.799 Y73.893 E.0377
G1 X122.568 Y75.451 E.05448
G1 X122.939 Y76.577 E.03717
G1 X123.185 Y77.754 E.0377
G1 X123.295 Y79.429 E.05263
M204 S1000
G1 X123.295 Y79.429 F10800
G1 X122.92 Y79.454
M204 S800
G1 F1200
G1 X122.922 Y79.475 E.00066
G1 X122.836 Y80.629 E.03628
G1 X122.619 Y81.77 E.03642
G1 X122.086 Y83.34 E.05199
G1 X121.565 Y84.374 E.0363
G1 X120.928 Y85.345 E.03641
G1 X119.835 Y86.592 E.05199
G1 X118.958 Y87.347 E.03628
G1 X117.998 Y88.001 E.03642
G1 X116.512 Y88.734 E.05195
G1 X115.408 Y89.098 E.03645
G1 X114.275 Y89.334 E.03629
G1 X112.619 Y89.442 E.05203
G1 X111.465 Y89.356 E.03628
G1 X110.324 Y89.14 E.03641
G1 X108.753 Y88.607 E.05202
G1 X107.72 Y88.086 E.03628
G1 X106.748 Y87.449 E.03644
G1 X105.502 Y86.355 E.05199
G1 X104.746 Y85.479 E.03628
G1 X104.092 Y84.518 E.03645
G1 X103.359 Y83.032 E.05195
G1 X102.996 Y81.929 E.03641
G1 X102.76 Y80.796 E.03629
G1 X102.651 Y79.14 E.05204
G1 X102.737 Y77.986 E.03628
G1 X102.954 Y76.844 E.03645
G1 X103.487 Y75.274 E.05199
G1 X104.008 Y74.241 E.03628
G1 X104.645 Y73.269 E.03644
G1 X105.737 Y72.023 E.05195
G1 X106.617 Y71.265 E.03642
G1 X107.574 Y70.614 E.03629
G1 X109.062 Y69.88 E.05202
G1 X110.161 Y69.517 E.03629
G1 X111.29 Y69.282 E.03616
G1 X112.588 Y69.174 E.04084
G1 X114.274 Y69.281 E.05297
G1 X115.264 Y69.478 E.03165
G1 X116.819 Y70.007 E.0515
G1 X117.856 Y70.53 E.03642
G1 X118.824 Y71.164 E.03628
G1 X120.07 Y72.258 E.05199
G1 X120.829 Y73.138 E.03644
G1 X121.48 Y74.095 E.03629
G1 X122.214 Y75.582 E.05199
G1 X122.577 Y76.685 E.03641
G1 X122.813 Y77.818 E.03629
G1 X122.916 Y79.394 E.04952
M204 S1000
G1 X122.916 Y79.394 F10800
G1 X122.542 Y79.419
M204 S800
G1 F1200
G1 X122.545 Y79.46 E.00129
G1 X122.46 Y80.59 E.03553
G1 X122.251 Y81.686 E.03498
G1 X121.743 Y83.182 E.04954
G1 X121.233 Y84.194 E.03553
G1 X120.62 Y85.127 E.035
G1 X119.579 Y86.315 E.04953
G1 X118.72 Y87.055 E.03555
G1 X117.797 Y87.682 E.03499
G1 X116.381 Y88.38 E.0495
G1 X115.321 Y88.731 E.03501
G1 X114.211 Y88.962 E.03555
G1 X112.634 Y89.065 E.04955
G1 X111.504 Y88.981 E.03553
G1 X110.407 Y88.772 E.03501
G1 X108.911 Y88.264 E.04954
G1 X107.899 Y87.754 E.03553
G1 X106.966 Y87.141 E.035
G1 X105.779 Y86.099 E.04952
G1 X105.039 Y85.241 E.03553
G1 X104.411 Y84.317 E.03503
G1 X103.713 Y82.901 E.0495
G1 X103.363 Y81.842 E.03497
G1 X103.132 Y80.732 E.03555
G1 X103.028 Y79.155 E.04955
G1 X103.113 Y78.024 E.03556
G1 X103.322 Y76.928 E.03498
G1 X103.83 Y75.432 E.04954
G1 X104.34 Y74.42 E.03553
G1 X104.953 Y73.487 E.035
G1 X105.994 Y72.3 E.0495
G1 X106.839 Y71.571 E.03499
G1 X107.775 Y70.933 E.03552
G1 X109.193 Y70.234 E.04957
G1 X110.248 Y69.884 E.03485
G1 X111.355 Y69.654 E.03545
G1 X112.608 Y69.55 E.03942
G1 X113.387 Y69.579 E.02444
G1 X115.178 Y69.845 E.05677
