; generated by PrusaSlicer 2.8.0 on 2024-10-04 at 17:13:46 UTC


;
;
; 

; external perimeters extrusion width = 0.60mm
; perimeters extrusion width = 0.50mm
; infill extrusion width = 0.50mm
; solid infill extrusion width = 0.50mm
; top infill extrusion width = 0.45mm
; first layer extrusion width = 0.42mm

M73 P0 R5
M73 Q0 S5
M201 X1000 Y1000 Z200 E5000 ; sets maximum accelerations, mm/sec^2
M203 X200 Y200 Z12 E120 ; sets maximum feedrates, mm / sec
M204 S1250 T1250 ; sets acceleration (S) and retract acceleration (R), mm/sec^2
M205 X8.00 Y8.00 Z0.40 E4.50 ; sets the jerk limits, mm/sec
M205 S0 T0 ; sets the minimum extruding and travel feed rate, mm/sec

; printing object hatch-nut.stl id:0 copy 0
; stop printing object hatch-nut.stl id:0 copy 0

;TYPE:Custom
M862.3 P "MK3S" ; printer model check
M862.1 P0.4 ; nozzle diameter check
M115 U3.14.0 ; tell printer latest fw version
G90 ; use absolute coordinates
M83 ; extruder relative mode
M104 S215 ; set extruder temp
M140 S60 ; set bed temp
M190 S60 ; wait for bed temp
M109 S215 ; wait for extruder temp
G28 W ; home all without mesh bed level
G80 X107.377 Y88.6856 W35.2464 H32.6288 ; mesh bed levelling

G1 Z0.2 F720
G1 Y-3 F1000 ; go outside print area
G92 E0
G1 X60 E9 F1000 ; intro line
G1 X100 E12.5 F1000 ; intro line
M73 P1 R5
M73 Q1 S5

G92 E0
M221 S95

; Don't change E values below. Excessive value can damage the printer.

M907 E538 ; set extruder motor current
G21 ; set units to millimeters
G90 ; use absolute coordinates
M83 ; use relative distances for extrusion

M900 K0.05 ; Filament gcode LA 1.5
M900 K30 ; Filament gcode LA 1.0




M107
;LAYER_CHANGE
;Z:0.2
;HEIGHT:0.2
G1 E-.8 F2100
G1 Z.6 F720
G1 X114.16 Y91.523 F10800
G1 Z.2 F720
M73 P2 R5
M73 Q2 S5
G1 E.8 F2100
M204 S800
;TYPE:Skirt/Brim
;WIDTH:0.42
G1 F1200
G1 X115.099 Y90.584 E.04164
G1 X117.466 Y89.218 E.08569
G1 X118.749 Y88.874 E.04165
G1 X131.251 Y88.874 E.39199
G1 X132.534 Y89.218 E.04165
G1 X134.901 Y90.584 E.08569
G1 X135.84 Y91.523 E.04164
G1 X142.091 Y102.351 E.39202
G1 X142.435 Y103.633 E.04162
G1 X142.435 Y106.367 E.08572
G1 X142.091 Y107.649 E.04162
G1 X135.84 Y118.477 E.39202
G1 X134.901 Y119.416 E.04164
G1 X132.534 Y120.782 E.08569
G1 X131.251 Y121.126 E.04165
M73 Q3 S5
G1 X118.749 Y121.126 E.39199
G1 X117.466 Y120.782 E.04165
M73 P3 R5
G1 X115.099 Y119.416 E.08569
G1 X114.16 Y118.477 E.04164
G1 X107.909 Y107.649 E.39202
G1 X107.565 Y106.367 E.04162
G1 X107.565 Y103.633 E.08572
G1 X107.909 Y102.351 E.04162
G1 X114.13 Y91.575 E.39013
M204 S1000
G1 X114.13 Y91.575 F10800
G1 X114.457 Y91.764
M204 S800
G1 F1200
G1 X114.487 Y91.712 E.00188
G1 X115.288 Y90.911 E.03552
G1 X117.655 Y89.544 E.0857
G1 X118.749 Y89.251 E.03551
G1 X131.251 Y89.251 E.39199
G1 X132.345 Y89.544 E.03551
G1 X134.712 Y90.911 E.0857
G1 X135.513 Y91.712 E.03552
M73 Q4 S5
G1 X141.764 Y102.539 E.39199
G1 X142.058 Y103.633 E.03552
M73 P4 R5
G1 X142.058 Y106.367 E.08572
G1 X141.764 Y107.461 E.03552
G1 X135.513 Y118.288 E.39199
G1 X134.712 Y119.089 E.03552
G1 X132.345 Y120.456 E.0857
G1 X131.251 Y120.749 E.03551
G1 X118.749 Y120.749 E.39199
G1 X117.655 Y120.456 E.03551
G1 X115.288 Y119.089 E.0857
G1 X114.487 Y118.288 E.03552
G1 X108.236 Y107.461 E.39199
G1 X107.942 Y106.367 E.03552
G1 X107.942 Y103.633 E.08572
M73 Q5 S5
G1 X108.236 Y102.539 E.03552
G1 X114.427 Y91.816 E.38823
M204 S1000
;WIPE_START
G1 F8640
M73 P5 R5
G1 X114.457 Y91.764 E-.01386
G1 X114.487 Y91.712 E-.01386
G1 X115.288 Y90.911 E-.26156
G1 X117.203 Y89.805 E-.51072
;WIPE_END
G1 Z.6 F720
G1 X116.406 Y93.516 F10800
G1 Z.2 F720
G1 E.8 F2100
M204 S800
G1 F1200
G1 X116.866 Y92.98 E.02215
G1 X117.816 Y92.298 E.03667
G1 X119.758 Y91.726 E.06348
G1 X130.258 Y91.733 E.32922
G1 X131.398 Y91.965 E.03648
G1 X132.454 Y92.456 E.03651
G1 X133.811 Y93.743 E.05864
G1 X139.117 Y102.905 E.33196
G1 X139.593 Y104.871 E.06342
G1 X139.477 Y106.034 E.03665
G1 X139.084 Y107.153 E.03719
G1 X133.907 Y116.12 E.32465
G1 X133.134 Y117.02 E.0372
G1 X132.184 Y117.702 E.03667
M73 Q6 S5
G1 X130.244 Y118.274 E.06342
G1 X119.755 Y118.274 E.32888
G1 X117.93 Y117.757 E.05947
M73 P6 R5
G1 X116.901 Y117.052 E.03911
G1 X116.093 Y116.12 E.03868
G1 X110.883 Y107.095 E.32674
G1 X110.407 Y105.129 E.06342
G1 X110.523 Y103.966 E.03665
G1 X110.916 Y102.847 E.03719
G1 X116.093 Y93.88 E.32465
G1 X116.367 Y93.561 E.01319
M204 S1000
G1 X116.367 Y93.561 F10800
G1 X116.65 Y93.804
M204 S800
G1 F1200
G1 X117.105 Y93.273 E.02193
G1 X118.01 Y92.623 E.03494
G1 X119.785 Y92.103 E.05799
G1 X130.238 Y92.11 E.32775
G1 X131.3 Y92.329 E.034
G1 X132.265 Y92.783 E.03344
G1 X133.53 Y93.996 E.05495
G1 X138.777 Y103.07 E.32865
G1 X139.214 Y104.865 E.05792
M73 Q7 S5
G1 X139.104 Y105.974 E.03494
M73 P7 R5
G1 X138.749 Y106.98 E.03345
G1 X133.589 Y115.917 E.32357
G1 X132.895 Y116.727 E.03344
G1 X131.99 Y117.377 E.03494
G1 X130.217 Y117.897 E.05793
G1 X119.782 Y117.897 E.32718
G1 X118.065 Y117.404 E.05601
G1 X117.137 Y116.757 E.03547
G1 X116.411 Y115.916 E.03484
G1 X111.223 Y106.93 E.32534
G1 X110.786 Y105.135 E.05792
G1 X110.896 Y104.026 E.03494
G1 X111.251 Y103.02 E.03345
G1 X116.411 Y94.083 E.32357
G1 X116.611 Y93.849 E.00965
M204 S1000
G1 X116.611 Y93.849 F10800
G1 X116.895 Y94.094
M204 S800
G1 F1200
G1 X117.375 Y93.537 E.02305
G1 X118.202 Y92.949 E.03182
G1 X119.811 Y92.48 E.05255
G1 X130.219 Y92.487 E.32634
G1 X131.16 Y92.68 E.03012
M73 P8 R5
M73 Q8 S5
G1 X132.076 Y93.111 E.03174
G1 X133.249 Y94.248 E.05122
G1 X138.438 Y103.235 E.32538
G1 X138.836 Y104.862 E.05252
G1 X138.74 Y105.872 E.03181
G1 X138.413 Y106.807 E.03106
G1 X133.271 Y115.713 E.32244
G1 X132.625 Y116.463 E.03104
G1 X131.798 Y117.051 E.03182
G1 X130.191 Y117.52 E.05249
G1 X119.809 Y117.52 E.32552
G1 X118.202 Y117.051 E.05249
G1 X117.375 Y116.463 E.03182
G1 X116.729 Y115.713 E.03104
G1 X111.562 Y106.765 E.32397
G1 X111.164 Y105.138 E.05252
G1 X111.26 Y104.128 E.03181
G1 X111.587 Y103.193 E.03106
G1 X116.729 Y94.287 E.32244
G1 X116.856 Y94.139 E.00611
M73 P9 R5
M73 Q9 S5
M204 S1000
G1 X116.856 Y94.139 F10800
G1 X117.139 Y94.385
M204 S800
G1 F1200
G1 X117.644 Y93.802 E.02418
G1 X118.392 Y93.275 E.02869
G1 X119.837 Y92.857 E.04716
G1 X130.199 Y92.864 E.32489
G1 X131.059 Y93.044 E.02755
G1 X131.885 Y93.438 E.02869
G1 X132.935 Y94.459 E.04592
G1 X138.098 Y103.401 E.32375
G1 X138.458 Y104.86 E.04712
G1 X138.376 Y105.771 E.02868
G1 X138.078 Y106.634 E.02863
G1 X132.954 Y115.508 E.32129
G1 X132.356 Y116.198 E.02863
G1 X131.608 Y116.725 E.02869
G1 X130.164 Y117.143 E.04713
G1 X119.836 Y117.143 E.32383
G1 X118.392 Y116.725 E.04713
G1 X117.644 Y116.198 E.02869
G1 X117.046 Y115.508 E.02863
G1 X111.902 Y106.599 E.32255
G1 X111.542 Y105.14 E.04712
M73 P10 R5
M73 Q10 S5
G1 X111.624 Y104.229 E.02868
G1 X111.922 Y103.366 E.02863
G1 X117.046 Y94.492 E.32129
G1 X117.1 Y94.43 E.00258
M204 S1000
G1 X117.1 Y94.43 F10800
G1 X117.381 Y94.676
M204 S800
G1 F1200
G1 X117.912 Y94.068 E.02531
G1 X118.582 Y93.603 E.02557
G1 X119.863 Y93.234 E.0418
G1 X130.178 Y93.241 E.32342
G1 X130.958 Y93.408 E.02501
G1 X131.693 Y93.764 E.02561
G1 X132.621 Y94.67 E.04066
G1 X137.758 Y103.567 E.32212
G1 X138.079 Y104.86 E.04177
G1 X138.012 Y105.672 E.02555
G1 X137.742 Y106.462 E.02618
G1 X132.637 Y115.304 E.32012
G1 X132.088 Y115.932 E.02615
G1 X131.419 Y116.397 E.02555
G1 X130.138 Y116.765 E.04179
G1 X119.862 Y116.765 E.3222
G1 X118.581 Y116.397 E.04179
M73 P11 R5
M73 Q11 S5
G1 X117.912 Y115.932 E.02555
G1 X117.363 Y115.304 E.02615
G1 X112.242 Y106.433 E.32116
G1 X111.921 Y105.14 E.04177
G1 X111.988 Y104.328 E.02555
G1 X112.258 Y103.538 E.02618
G1 X117.347 Y94.725 E.31909
M204 S1000
G1 X117.347 Y94.725 F10800
G1 X117.673 Y94.913
M204 S800
G1 F1200
G1 X117.681 Y94.9 E.00048
G1 X118.147 Y94.364 E.02227
G1 X118.771 Y93.93 E.02383
G1 X119.889 Y93.612 E.03644
G1 X130.157 Y93.618 E.32195
G1 X130.853 Y93.771 E.02234
G1 X131.499 Y94.088 E.02256
G1 X132.308 Y94.88 E.0355
G1 X137.419 Y103.733 E.32052
G1 X137.701 Y104.86 E.03643
G1 X137.638 Y105.617 E.02382
G1 X137.406 Y106.289 E.02229
G1 X132.319 Y115.1 E.319
G1 X131.853 Y115.636 E.02227
M73 Q12 S5
G1 X131.229 Y116.069 E.02381
G1 X130.112 Y116.388 E.03642
G1 X119.888 Y116.388 E.32057
M73 P12 R5
G1 X118.771 Y116.069 E.03642
G1 X118.147 Y115.636 E.02381
G1 X117.681 Y115.1 E.02227
G1 X112.581 Y106.267 E.3198
G1 X112.299 Y105.14 E.03643
G1 X112.362 Y104.383 E.02382
G1 X112.594 Y103.711 E.02229
G1 X117.643 Y94.965 E.31664
M204 S1000
G1 X117.643 Y94.965 F10800
G1 X117.97 Y95.154
M204 S800
G1 F1200
G1 X117.998 Y95.105 E.00177
G1 X118.414 Y94.631 E.01977
G1 X118.958 Y94.259 E.02066
G1 X119.915 Y93.989 E.03118
G1 X130.135 Y93.995 E.32044
G1 X130.747 Y94.133 E.01967
G1 X131.304 Y94.412 E.01953
G1 X131.994 Y95.091 E.03035
G1 X137.079 Y103.899 E.31889
G1 X137.323 Y104.863 E.03118
G1 X137.273 Y105.519 E.02063
G1 X137.07 Y106.117 E.0198
G1 X132.002 Y114.895 E.31781
G1 X131.586 Y115.369 E.01977
M73 P13 R5
M73 Q13 S5
G1 X131.042 Y115.741 E.02066
G1 X130.086 Y116.011 E.03115
G1 X119.914 Y116.011 E.31894
G1 X118.958 Y115.741 E.03115
M73 P13 R4
G1 X118.414 Y115.369 E.02066
G1 X117.998 Y114.895 E.01977
G1 X112.921 Y106.101 E.31838
G1 X112.677 Y105.137 E.03118
M73 Q13 S4
G1 X112.727 Y104.481 E.02063
G1 X112.93 Y103.883 E.0198
G1 X117.94 Y95.206 E.31415
M204 S1000
G1 X117.94 Y95.206 F10800
G1 X118.267 Y95.394
M204 S800
G1 F1200
G1 X118.315 Y95.311 E.00301
G1 X118.679 Y94.9 E.01721
G1 X119.142 Y94.59 E.01747
G1 X119.94 Y94.366 E.02599
G1 X130.113 Y94.372 E.31897
G1 X130.637 Y94.495 E.01688
G1 X131.106 Y94.734 E.0165
G1 X131.68 Y95.301 E.0253
G1 X136.74 Y104.065 E.3173
G1 X136.945 Y104.868 E.02599
M73 Q14 S4
G1 X136.907 Y105.424 E.01747
G1 X136.734 Y105.945 E.01721
M73 P14 R4
G1 X131.685 Y114.689 E.31659
G1 X131.321 Y115.1 E.01721
G1 X130.858 Y115.41 E.01747
G1 X130.06 Y115.634 E.02599
G1 X119.94 Y115.634 E.31731
G1 X119.142 Y115.41 E.02599
G1 X118.679 Y115.1 E.01747
G1 X118.315 Y114.689 E.01721
G1 X113.26 Y105.935 E.31695
G1 X113.055 Y105.132 E.02599
G1 X113.093 Y104.576 E.01747
G1 X113.266 Y104.055 E.01721
G1 X118.237 Y95.446 E.3117
M204 S1000
G1 X118.237 Y95.446 F10800
G1 X118.563 Y95.635
M204 S800
G1 F1200
G1 X118.631 Y95.517 E.00427
G1 X118.942 Y95.172 E.01456
G1 X119.323 Y94.921 E.01431
G1 X119.965 Y94.743 E.02089
G1 X130.089 Y94.749 E.31743
G1 X130.524 Y94.855 E.01404
G1 X130.905 Y95.054 E.01348
G1 X131.366 Y95.511 E.02035
G1 X136.4 Y104.232 E.31573
G1 X136.567 Y104.877 E.02089
M73 P15 R4
M73 Q15 S4
G1 X136.541 Y105.332 E.01429
G1 X136.397 Y105.774 E.01458
G1 X131.369 Y114.483 E.31531
G1 X131.058 Y114.828 E.01456
G1 X130.677 Y115.079 E.01431
G1 X130.035 Y115.257 E.02089
G1 X119.965 Y115.257 E.31574
G1 X119.323 Y115.079 E.02089
G1 X118.942 Y114.828 E.01431
G1 X118.631 Y114.483 E.01456
G1 X113.6 Y105.768 E.31552
G1 X113.433 Y105.123 E.02089
G1 X113.459 Y104.668 E.01429
G1 X113.603 Y104.226 E.01458
G1 X118.533 Y95.687 E.30915
M204 S1000
G1 X118.533 Y95.687 F10800
G1 X118.86 Y95.875
M204 S800
G1 F1200
G1 X118.947 Y95.724 E.00546
G1 X119.501 Y95.255 E.02276
G1 X119.99 Y95.12 E.01591
G1 X130.064 Y95.126 E.31586
G1 X130.702 Y95.373 E.02145
G1 X131.051 Y95.721 E.01545
G1 X136.061 Y104.399 E.31418
G1 X136.189 Y104.89 E.01591
M73 P16 R4
M73 Q16 S4
G1 X136.06 Y105.604 E.02275
G1 X131.053 Y114.276 E.31397
G1 X130.499 Y114.745 E.02276
G1 X130.01 Y114.88 E.01591
G1 X119.99 Y114.88 E.31417
G1 X119.501 Y114.745 E.01591
G1 X118.947 Y114.276 E.02276
G1 X113.939 Y105.601 E.31407
G1 X113.811 Y105.11 E.01591
G1 X113.94 Y104.396 E.02275
G1 X118.83 Y95.927 E.30663
M204 S1000
G1 X118.83 Y95.927 F10800
G1 X119.156 Y96.116
M204 S800
G1 F1200
G1 X119.264 Y95.929 E.00677
G1 X119.679 Y95.588 E.01684
G1 X120.015 Y95.497 E.01091
G1 X130.037 Y95.504 E.31423
G1 X130.495 Y95.688 E.01548
G1 X130.737 Y95.931 E.01075
G1 X135.722 Y104.566 E.31262
G1 X135.811 Y104.902 E.0109
M73 P17 R4
M73 Q17 S4
G1 X135.723 Y105.432 E.01685
G1 X130.736 Y114.071 E.31276
G1 X130.321 Y114.412 E.01684
G1 X129.985 Y114.503 E.01091
G1 X120.015 Y114.503 E.3126
G1 X119.679 Y114.412 E.01091
G1 X119.264 Y114.071 E.01684
G1 X114.278 Y105.434 E.31269
G1 X114.189 Y105.098 E.0109
G1 X114.277 Y104.568 E.01685
G1 X119.126 Y96.168 E.30411
M204 S1000
G1 X119.126 Y96.168 F10800
G1 X119.453 Y96.356
M204 S800
G1 F1200
G1 X119.579 Y96.138 E.00789
G1 X120.039 Y95.874 E.01663
G1 X130.149 Y95.924 E.317
G1 X130.423 Y96.141 E.01096
G1 X135.384 Y104.733 E.31108
G1 X135.385 Y105.264 E.01665
G1 X130.421 Y113.862 E.31129
M73 Q18 S4
G1 X130.149 Y114.075 E.01083
M73 P18 R4
G1 X129.961 Y114.126 E.00611
G1 X119.851 Y114.075 E.317
G1 X119.579 Y113.862 E.01083
G1 X114.616 Y105.267 E.31119
G1 X114.615 Y104.736 E.01665
G1 X119.423 Y96.408 E.30151
M204 S1000
G1 X119.423 Y96.408 F10800
G1 X119.749 Y96.597
M204 S800
G1 F1200
G1 X119.891 Y96.351 E.00891
G1 X120.016 Y96.264 E.00478
G1 X129.984 Y96.264 E.31254
G1 X130.109 Y96.351 E.00478
G1 X135.045 Y104.9 E.30952
G1 X135.045 Y105.1 E.00627
G1 X130.109 Y113.649 E.30952
G1 X129.984 Y113.736 E.00478
M73 P19 R4
M73 Q19 S4
G1 X120.016 Y113.736 E.31254
G1 X119.891 Y113.649 E.00478
G1 X114.955 Y105.1 E.30952
G1 X114.955 Y104.9 E.00627
G1 X119.719 Y96.649 E.29873
M204 S1000
;WIPE_START
G1 F8640
G1 X119.749 Y96.597 E-.01386
G1 X119.891 Y96.351 E-.06559
G1 X120.016 Y96.264 E-.03517
G1 X122.984 Y96.264 E-.68538
;WIPE_END
G1 Z.6 F720
; printing object hatch-nut.stl id:0 copy 0
G1 X119.372 Y106.791 F10800
G1 Z.2 F720
G1 E.8 F2100
M204 S800
;TYPE:Perimeter
;WIDTH:0.419999
G1 F1200
G1 X119.135 Y105.737 E.03387
G1 X119.111 Y104.494 E.03898
G1 X119.287 Y103.483 E.03218
G1 X119.682 Y102.419 E.03559
G1 X120.273 Y101.451 E.03556
G1 X121.065 Y100.538 E.0379
G1 X121.963 Y99.825 E.03595
G1 X122.99 Y99.29 E.03631
G1 X124.11 Y98.959 E.03662
G1 X125.284 Y98.847 E.03698
G1 X126.467 Y98.964 E.03727
G1 X127.514 Y99.267 E.03417
G1 X128.686 Y99.869 E.04131
G1 X129.637 Y100.631 E.03821
G1 X130.367 Y101.479 E.03508
G1 X130.78 Y102.13 E.02417
G1 X131.051 Y102.71 E.02007
G1 X131.258 Y103.315 E.02005
G1 X131.459 Y104.395 E.03444
G1 X131.451 Y105.639 E.03901
G1 X131.317 Y106.411 E.02457
G1 X131.128 Y107.027 E.0202
G1 X130.656 Y108.014 E.0343
G1 X129.937 Y109.003 E.03834
G1 X129.047 Y109.832 E.03814
G1 X128.023 Y110.47 E.03783
M73 Q20 S4
G1 X126.906 Y110.897 E.03749
M73 P20 R4
G1 X125.738 Y111.1 E.03717
G1 X124.562 Y111.076 E.03688
G1 X123.423 Y110.829 E.03654
G1 X122.361 Y110.372 E.03625
G1 X121.419 Y109.73 E.03574
G1 X120.579 Y108.92 E.03659
G1 X120.353 Y108.648 E.01109
G1 X119.838 Y107.88 E.02899
G1 X119.387 Y106.849 E.03528
M204 S1000
G1 X119.387 Y106.849 F10800
G1 X119.727 Y106.678
M204 S800
;TYPE:External perimeter
G1 F1200
G1 X119.504 Y105.657 E.03277
G1 X119.482 Y104.559 E.03443
G1 X119.668 Y103.513 E.03331
G1 X120.051 Y102.522 E.03331
G1 X120.593 Y101.65 E.03219
G1 X121.278 Y100.855 E.0329
G1 X122.11 Y100.178 E.03363
G1 X123.067 Y99.665 E.03405
G1 X124.114 Y99.341 E.03436
G1 X125.214 Y99.223 E.03469
G1 X126.326 Y99.319 E.035
G1 X127.41 Y99.629 E.03535
G1 X128.453 Y100.165 E.03677
G1 X129.325 Y100.852 E.03481
G1 X130.083 Y101.727 E.0363
G1 X130.459 Y102.33 E.02228
G1 X130.709 Y102.868 E.0186
G1 X130.9 Y103.435 E.01876
G1 X131.088 Y104.462 E.03274
G1 X131.074 Y105.634 E.03675
G1 X130.947 Y106.343 E.02258
G1 X130.768 Y106.913 E.01873
G1 X130.299 Y107.88 E.0337
G1 X129.634 Y108.779 E.03506
G1 X128.792 Y109.554 E.03588
G1 X127.827 Y110.148 E.03553
G1 X126.775 Y110.543 E.03523
G1 X125.676 Y110.728 E.03494
G1 X124.573 Y110.699 E.0346
G1 X123.506 Y110.461 E.03428
G1 X122.513 Y110.027 E.03398
G1 X121.635 Y109.42 E.03347
G1 X120.843 Y108.651 E.03461
G1 X120.151 Y107.67 E.03764
G1 X119.747 Y106.734 E.03196
M204 S1000
;WIPE_START
G1 F8640
G1 X119.727 Y106.678 E-.01373
G1 X119.504 Y105.657 E-.24131
G1 X119.482 Y104.559 E-.25358
G1 X119.668 Y103.513 E-.24531
G1 X119.74 Y103.327 E-.04607
;WIPE_END
G1 Z.6 F720
G1 X120.454 Y97.127 F10800
G1 Z.2 F720
G1 E.8 F2100
M204 S800
;TYPE:Perimeter
G1 F1200
G1 X129.546 Y97.127 E.28507
G1 X134.091 Y105 E.28503
G1 X129.546 Y112.873 E.28503
M73 P21 R4
M73 Q21 S4
G1 X120.454 Y112.873 E.28507
G1 X115.909 Y105 E.28503
G1 X120.424 Y97.179 E.28315
M204 S1000
G1 X120.424 Y97.179 F10800
G1 X120.237 Y96.75
M204 S800
