; generated by PrusaSlicer 2.8.1 on 2024-11-03 at 01:19:07 UTC


;
;
; 

; external perimeters extrusion width = 0.45mm
; perimeters extrusion width = 0.45mm
; infill extrusion width = 0.45mm
; solid infill extrusion width = 0.45mm
; top infill extrusion width = 0.40mm
; support material extrusion width = 0.35mm
; first layer extrusion width = 0.42mm

M73 P0 R52
M73 Q0 S52
M201 X1000 Y1000 Z200 E5000 ; sets maximum accelerations, mm/sec^2
M203 X200 Y200 Z12 E120 ; sets maximum feedrates, mm / sec
M204 S1250 T1250 ; sets acceleration (S) and retract acceleration (R), mm/sec^2
M205 X8.00 Y8.00 Z0.40 E4.50 ; sets the jerk limits, mm/sec
M205 S0 T0 ; sets the minimum extruding and travel feed rate, mm/sec

; printing object hatch-peg-Peg.stl id:0 copy 0
; stop printing object hatch-peg-Peg.stl id:0 copy 0

;TYPE:Custom
M862.3 P "MK3S" ; printer model check
M862.1 P0.4 ; nozzle diameter check
M115 U3.14.0 ; tell printer latest fw version
G90 ; use absolute coordinates
M83 ; extruder relative mode
M104 S260 ; set extruder temp
M140 S105 ; set bed temp
M190 S105 ; wait for bed temp
M109 S260 ; wait for extruder temp
G28 W ; home all without mesh bed level
G80 X96.2861 Y62.8067 W33.0008 H33.0008 ; mesh bed levelling

G1 Z0.2 F720
G1 Y-3 F1000 ; go outside print area
G92 E0
G1 X60 E9 F1000 ; intro line
G1 X100 E12.5 F1000 ; intro line

G92 E0
M221 S95

; Don't change E values below. Excessive value can damage the printer.
M907 E430 ; set extruder motor current
G21 ; set units to millimeters
G90 ; use absolute coordinates
M83 ; use relative distances for extrusion

M900 K0.04 ; Filament gcode LA 1.5
M900 K20 ; Filament gcode LA 1.0




M107
;LAYER_CHANGE
;Z:0.2
;HEIGHT:0.2
G1 E-.8 F2100
G1 Z.6 F720
G1 X97.226 Y63.857 F10800
G1 Z.2 F720
G1 E.8 F2100
M204 S800
;TYPE:Skirt/Brim
;WIDTH:0.42
G1 F1200
G1 X97.337 Y63.747 E.0049
G1 X99.151 Y62.995 E.06157
G1 X126.422 Y62.995 E.85506
G1 X128.236 Y63.747 E.06157
G1 X128.347 Y63.857 E.0049
G1 X129.098 Y65.671 E.06156
G1 X129.098 Y92.808 E.85086
G1 X128.566 Y94.373 E.05183
G1 X128.378 Y94.618 E.00968
G1 X127.235 Y95.459 E.04449
G1 X126.344 Y95.619 E.02838
G1 X99.151 Y95.619 E.85262
G1 X97.337 Y94.868 E.06156
G1 X97.226 Y94.757 E.00492
G1 X96.475 Y92.943 E.06156
G1 X96.475 Y65.671 E.85509
G1 X97.203 Y63.913 E.05966
M204 S1000
G1 X97.203 Y63.913 F10800
G1 X97.493 Y64.124
M204 S800
G1 F1200
G1 X97.603 Y64.013 E.0049
G1 X99.151 Y63.372 E.05253
G1 X126.422 Y63.372 E.85506
G1 X127.97 Y64.013 E.05253
G1 X128.08 Y64.124 E.0049
G1 X128.721 Y65.671 E.0525
G1 X128.721 Y92.808 E.85086
G1 X128.267 Y94.143 E.04421
M73 P0 R51
G1 X128.079 Y94.388 E.00968
G1 X127.008 Y95.139 E.04101
G1 X126.344 Y95.242 E.02107
G1 X99.151 Y95.242 E.85262
G1 X97.603 Y94.601 E.05253
G1 X97.493 Y94.49 E.0049
G1 X96.852 Y92.943 E.0525
G1 X96.852 Y65.671 E.85509
G1 X97.47 Y64.179 E.05063
M204 S1000
;WIPE_START
G1 F8640
G1 X97.493 Y64.124 E-.01377
G1 X97.603 Y64.013 E-.03608
G1 X99.151 Y63.372 E-.38687
G1 X100.724 Y63.372 E-.36328
;WIPE_END
G1 Z.6 F720
G1 X105.481 Y71.746 F10800
G1 Z.2 F720
G1 E.8 F2100
M204 S800
G1 F1200
G1 X106.38 Y70.972 E.0372
G1 X107.373 Y70.294 E.0377
G1 X108.931 Y69.526 E.05446
G1 X110.053 Y69.156 E.03704
G1 X111.224 Y68.911 E.03751
G1 X112.568 Y68.797 E.04229
G1 X113.424 Y68.826 E.02685
G1 X114.337 Y68.909 E.02874
G1 X115.35 Y69.11 E.03238
G1 X116.977 Y69.665 E.0539
G1 X118.035 Y70.198 E.03714
M73 Q0 S51
G1 X119.041 Y70.856 E.03769
G1 X120.348 Y72.002 E.0545
G1 X121.121 Y72.9 E.03715
G1 X121.799 Y73.893 E.0377
G1 X122.568 Y75.451 E.05448
G1 X122.939 Y76.577 E.03717
G1 X123.185 Y77.754 E.0377
G1 X123.299 Y79.489 E.05452
G1 X123.208 Y80.688 E.0377
G1 X122.987 Y81.853 E.03718
G1 X122.429 Y83.498 E.05446
G1 X121.886 Y84.571 E.03771
G1 X121.236 Y85.563 E.03719
G1 X120.091 Y86.869 E.05446
G1 X119.179 Y87.653 E.03771
G1 X118.199 Y88.321 E.03719
G1 X116.642 Y89.088 E.05442
G1 X115.516 Y89.459 E.03717
G1 X114.339 Y89.706 E.03771
G1 X112.604 Y89.819 E.05451
G1 X111.405 Y89.729 E.0377
G1 X110.24 Y89.508 E.03718
G1 X108.595 Y88.949 E.05447
G1 X107.522 Y88.407 E.03769
G1 X106.531 Y87.757 E.03716
G1 X105.225 Y86.612 E.05446
G1 X104.441 Y85.7 E.03771
G1 X103.773 Y84.72 E.03719
G1 X103.005 Y83.163 E.05443
G1 X102.634 Y82.037 E.03717
G1 X102.388 Y80.86 E.0377
G1 X102.274 Y79.125 E.05452
G1 X102.365 Y77.926 E.0377
G1 X102.586 Y76.761 E.03718
G1 X103.144 Y75.116 E.05446
G1 X103.687 Y74.043 E.03771
G1 X104.337 Y73.051 E.03719
G1 X105.442 Y71.791 E.05255
M204 S1000
G1 X105.442 Y71.791 F10800
G1 X105.724 Y72.039
M204 S800
G1 F1200
G1 X105.737 Y72.023 E.00065
G1 X106.617 Y71.265 E.03642
G1 X107.574 Y70.614 E.03629
G1 X109.062 Y69.88 E.05202
G1 X110.161 Y69.517 E.03629
G1 X111.29 Y69.282 E.03616
G1 X112.588 Y69.174 E.04084
G1 X114.274 Y69.281 E.05297
G1 X115.264 Y69.478 E.03165
G1 X116.819 Y70.007 E.0515
G1 X117.856 Y70.53 E.03642
G1 X118.824 Y71.164 E.03628
G1 X120.07 Y72.258 E.05199
G1 X120.829 Y73.138 E.03644
G1 X121.48 Y74.095 E.03629
G1 X122.214 Y75.582 E.05199
G1 X122.577 Y76.685 E.03641
G1 X122.813 Y77.818 E.03629
G1 X122.922 Y79.475 E.05207
G1 X122.836 Y80.629 E.03628
G1 X122.619 Y81.77 E.03642
G1 X122.086 Y83.34 E.05199
G1 X121.565 Y84.374 E.0363
G1 X120.928 Y85.345 E.03641
G1 X119.835 Y86.592 E.05199
G1 X118.958 Y87.347 E.03628
G1 X117.998 Y88.001 E.03642
G1 X116.512 Y88.734 E.05195
G1 X115.408 Y89.098 E.03645
G1 X114.275 Y89.334 E.03629
G1 X112.619 Y89.442 E.05203
G1 X111.465 Y89.356 E.03628
G1 X110.324 Y89.14 E.03641
G1 X108.753 Y88.607 E.05202
G1 X107.72 Y88.086 E.03628
G1 X106.748 Y87.449 E.03644
G1 X105.502 Y86.355 E.05199
G1 X104.746 Y85.479 E.03628
G1 X104.092 Y84.518 E.03645
G1 X103.359 Y83.032 E.05195
G1 X102.996 Y81.929 E.03641
G1 X102.76 Y80.796 E.03629
G1 X102.651 Y79.14 E.05204
G1 X102.737 Y77.986 E.03628
G1 X102.954 Y76.844 E.03645
G1 X103.487 Y75.274 E.05199
G1 X104.008 Y74.241 E.03628
G1 X104.645 Y73.269 E.03644
G1 X105.684 Y72.084 E.04941
M204 S1000
G1 X105.684 Y72.084 F10800
G1 X105.966 Y72.331
M204 S800
G1 F1200
G1 X105.994 Y72.3 E.00131
G1 X106.839 Y71.571 E.03499
G1 X107.775 Y70.933 E.03552
G1 X109.193 Y70.234 E.04957
G1 X110.248 Y69.884 E.03485
G1 X111.355 Y69.654 E.03545
G1 X112.608 Y69.55 E.03942
G1 X113.387 Y69.579 E.02444
G1 X115.178 Y69.845 E.05677
G1 X116.661 Y70.35 E.04912
G1 X117.658 Y70.851 E.03499
G1 X118.606 Y71.473 E.03555
G1 X119.794 Y72.514 E.04953
G1 X120.523 Y73.359 E.03499
G1 X121.161 Y74.296 E.03554
G1 X121.86 Y75.713 E.04954
G1 X122.21 Y76.773 E.035
G1 X122.441 Y77.882 E.03552
G1 X122.545 Y79.46 E.04958
G1 X122.461 Y80.59 E.03553
G1 X122.251 Y81.686 E.03499
G1 X121.743 Y83.182 E.04954
G1 X121.233 Y84.194 E.03553
G1 X120.62 Y85.127 E.035
G1 X119.579 Y86.315 E.04953
G1 X118.72 Y87.055 E.03555
G1 X117.797 Y87.682 E.03499
G1 X116.381 Y88.38 E.0495
G1 X115.321 Y88.731 E.03501
G1 X114.211 Y88.962 E.03555
G1 X112.634 Y89.065 E.04955
G1 X111.504 Y88.981 E.03553
G1 X110.407 Y88.772 E.03501
G1 X108.911 Y88.264 E.04954
G1 X107.899 Y87.754 E.03553
G1 X106.966 Y87.141 E.035
G1 X105.779 Y86.099 E.04952
G1 X105.039 Y85.241 E.03553
G1 X104.411 Y84.317 E.03503
G1 X103.713 Y82.901 E.0495
G1 X103.363 Y81.842 E.03497
G1 X103.132 Y80.732 E.03555
G1 X103.028 Y79.155 E.04955
G1 X103.113 Y78.024 E.03556
G1 X103.322 Y76.928 E.03498
G1 X103.83 Y75.432 E.04954
G1 X104.34 Y74.42 E.03553
G1 X104.953 Y73.487 E.035
G1 X105.927 Y72.376 E.04633
M204 S1000
G1 X105.927 Y72.376 F10800
G1 X106.209 Y72.624
M204 S800
G1 F1200
G1 X106.25 Y72.577 E.00196
G1 X107.077 Y71.863 E.03426
G1 X107.976 Y71.252 E.03408
G1 X109.324 Y70.587 E.04713
G1 X110.356 Y70.246 E.03408
G1 X111.42 Y70.025 E.03407
G1 X112.627 Y69.927 E.03797
G1 X114.147 Y70.025 E.04776
G1 X115.092 Y70.213 E.03021
G1 X116.503 Y70.693 E.04673
G1 X117.479 Y71.183 E.03424
G1 X118.388 Y71.781 E.03412
G1 X119.517 Y72.77 E.04706
G1 X120.23 Y73.597 E.03424
G1 X120.842 Y74.497 E.03413
G1 X121.506 Y75.844 E.04709
G1 X121.849 Y76.881 E.03425
G1 X122.069 Y77.946 E.0341
G1 X122.168 Y79.445 E.0471
G1 X122.088 Y80.53 E.03411
G1 X121.883 Y81.603 E.03425
G1 X121.401 Y83.025 E.04708
G1 X120.912 Y83.996 E.03409
G1 X120.312 Y84.909 E.03425
G1 X119.322 Y86.038 E.04708
G1 X118.499 Y86.749 E.0341
G1 X117.596 Y87.363 E.03424
G1 X116.25 Y88.027 E.04706
M73 Q1 S51
G1 X115.213 Y88.369 E.03424
G1 X114.148 Y88.59 E.0341
G1 X112.648 Y88.688 E.04713
M73 P1 R51
G1 X111.564 Y88.609 E.03408
G1 X110.491 Y88.404 E.03425
G1 X109.069 Y87.921 E.04709
G1 X108.097 Y87.433 E.0341
G1 X107.184 Y86.833 E.03425
G1 X106.055 Y85.843 E.04708
G1 X105.345 Y85.02 E.03408
G1 X104.731 Y84.116 E.03426
G1 X104.067 Y82.771 E.04703
G1 X103.724 Y81.734 E.03425
G1 X103.504 Y80.669 E.0341
G1 X103.405 Y79.169 E.04713
G1 X103.485 Y78.084 E.03411
G1 X103.69 Y77.011 E.03425
G1 X104.172 Y75.59 E.04705
G1 X104.661 Y74.618 E.03412
G1 X105.261 Y73.705 E.03425
G1 X106.169 Y72.669 E.04319
M204 S1000
G1 X106.169 Y72.669 F10800
G1 X106.451 Y72.916
M204 S800
G1 F1200
G1 X106.506 Y72.854 E.0026
G1 X107.298 Y72.169 E.03283
G1 X108.177 Y71.571 E.03333
G1 X109.455 Y70.941 E.04468
G1 X110.443 Y70.613 E.03264
G1 X111.485 Y70.397 E.03337
G1 X112.646 Y70.304 E.03652
G1 X113.348 Y70.332 E.02203
G1 X115.007 Y70.58 E.05259
G1 X116.346 Y71.035 E.04434
G1 X117.281 Y71.505 E.03281
G1 X118.17 Y72.089 E.03335
G1 X119.24 Y73.027 E.04462
G1 X119.925 Y73.818 E.03281
G1 X120.522 Y74.698 E.03334
G1 X121.152 Y75.975 E.04465
G1 X121.482 Y76.968 E.03281
G1 X121.697 Y78.009 E.03333
G1 X121.791 Y79.431 E.04468
G1 X121.713 Y80.491 E.03333
G1 X121.516 Y81.519 E.03282
G1 X121.058 Y82.867 E.04464
G1 X120.58 Y83.817 E.03334
G1 X120.005 Y84.691 E.0328
G1 X119.066 Y85.761 E.04464
G1 X118.261 Y86.456 E.03335
G1 X117.395 Y87.044 E.03282
G1 X116.119 Y87.673 E.0446
G1 X115.126 Y88.002 E.0328
G1 X114.084 Y88.218 E.03337
G1 X112.663 Y88.311 E.04465
G1 X111.602 Y88.233 E.03336
G1 X110.575 Y88.036 E.03279
G1 X109.227 Y87.579 E.04463
G1 X108.277 Y87.101 E.03334
G1 X107.403 Y86.525 E.03282
G1 X106.332 Y85.587 E.04464
G1 X105.637 Y84.782 E.03335
G1 X105.05 Y83.915 E.03283
G1 X104.421 Y82.639 E.0446
G1 X104.091 Y81.646 E.03281
G1 X103.876 Y80.605 E.03333
G1 X103.782 Y79.184 E.04465
G1 X103.86 Y78.123 E.03336
G1 X104.057 Y77.095 E.03282
G1 X104.515 Y75.747 E.04464
G1 X104.993 Y74.797 E.03334
G1 X105.568 Y73.923 E.0328
G1 X106.412 Y72.961 E.04013
M204 S1000
G1 X106.412 Y72.961 F10800
G1 X106.694 Y73.209
M204 S800
G1 F1200
G1 X106.763 Y73.13 E.00329
G1 X107.536 Y72.461 E.03205
G1 X108.378 Y71.891 E.03188
G1 X109.586 Y71.295 E.04224
G1 X110.552 Y70.974 E.03192
G1 X111.549 Y70.769 E.03191
G1 X112.664 Y70.681 E.03507
G1 X114.02 Y70.768 E.0426
G1 X114.921 Y70.947 E.0288
G1 X116.188 Y71.378 E.04196
G1 X117.102 Y71.837 E.03207
G1 X117.951 Y72.396 E.03187
G1 X118.963 Y73.284 E.04221
G1 X119.632 Y74.057 E.03205
G1 X120.203 Y74.899 E.0319
G1 X120.798 Y76.106 E.04219
G1 X121.12 Y77.076 E.03205
G1 X121.325 Y78.073 E.03191
G1 X121.414 Y79.417 E.04223
G1 X121.34 Y80.431 E.03188
G1 X121.148 Y81.435 E.03205
G1 X120.715 Y82.71 E.04222
G1 X120.259 Y83.619 E.03189
G1 X119.697 Y84.473 E.03205
G1 X118.809 Y85.485 E.04221
G1 X118.04 Y86.15 E.03188
G1 X117.194 Y86.724 E.03205
G1 X115.988 Y87.319 E.04216
G1 X115.018 Y87.641 E.03205
G1 X114.021 Y87.846 E.03191
G1 X112.677 Y87.934 E.04223
G1 X111.662 Y87.861 E.03191
G1 X110.658 Y87.668 E.03206
G1 X109.384 Y87.236 E.04218
G1 X108.475 Y86.78 E.03189
G1 X107.621 Y86.217 E.03207
G1 X106.609 Y85.33 E.04219
G1 X105.943 Y84.561 E.0319
G1 X105.37 Y83.715 E.03204
G1 X104.775 Y82.508 E.04219
G1 X104.453 Y81.538 E.03205
G1 X104.248 Y80.542 E.03188
G1 X104.159 Y79.198 E.04223
G1 X104.233 Y78.183 E.03191
G1 X104.425 Y77.179 E.03205
G1 X104.858 Y75.905 E.04219
G1 X105.314 Y74.995 E.03191
G1 X105.876 Y74.141 E.03205
G1 X106.655 Y73.254 E.03701
M204 S1000
G1 X106.655 Y73.254 F10800
G1 X106.937 Y73.501
M204 S800
G1 F1200
G1 X107.02 Y73.407 E.00393
G1 X107.757 Y72.767 E.0306
G1 X108.579 Y72.21 E.03113
G1 X109.717 Y71.649 E.03978
G1 X110.66 Y71.336 E.03115
G1 X111.613 Y71.141 E.0305
G1 X113.308 Y71.085 E.05317
G1 X114.835 Y71.315 E.04842
G1 X116.031 Y71.721 E.0396
G1 X116.904 Y72.158 E.03061
G1 X117.733 Y72.704 E.03112
G1 X118.687 Y73.54 E.03977
G1 X119.327 Y74.278 E.03063
G1 X119.884 Y75.1 E.03113
G1 X120.445 Y76.237 E.03975
G1 X120.753 Y77.163 E.0306
G1 X120.954 Y78.136 E.03115
G1 X121.037 Y79.402 E.03978
G1 X120.965 Y80.393 E.03115
G1 X120.78 Y81.351 E.03059
G1 X120.372 Y82.552 E.03977
G1 X119.927 Y83.44 E.03114
G1 X119.389 Y84.254 E.03059
G1 X118.553 Y85.208 E.03977
G1 X117.802 Y85.858 E.03114
G1 X116.994 Y86.405 E.03059
G1 X115.856 Y86.965 E.03977
G1 X114.93 Y87.274 E.03061
G1 X113.958 Y87.474 E.03111
G1 X112.691 Y87.557 E.03981
G1 X111.701 Y87.486 E.03112
G1 X110.743 Y87.301 E.03059
G1 X109.541 Y86.893 E.0398
G1 X108.654 Y86.448 E.03111
G1 X107.839 Y85.91 E.03062
G1 X106.886 Y85.073 E.03977
G1 X106.236 Y84.323 E.03112
G1 X105.689 Y83.514 E.03062
G1 X105.128 Y82.377 E.03975
G1 X104.82 Y81.451 E.0306
G1 X104.62 Y80.478 E.03115
G1 X104.537 Y79.212 E.03978
G1 X104.608 Y78.221 E.03115
G1 X104.793 Y77.263 E.03059
G1 X105.201 Y76.062 E.03977
G1 X105.646 Y75.174 E.03114
G1 X106.184 Y74.36 E.03059
G1 X106.897 Y73.546 E.03393
M204 S1000
G1 X106.897 Y73.546 F10800
G1 X107.179 Y73.794
M204 S800
G1 F1200
G1 X107.277 Y73.683 E.00464
G1 X107.995 Y73.06 E.02981
G1 X108.779 Y72.53 E.02967
G1 X109.849 Y72.002 E.03741
G1 X110.747 Y71.703 E.02968
G1 X111.677 Y71.512 E.02977
G1 X112.698 Y71.435 E.0321
G1 X113.894 Y71.512 E.03758
G1 X114.75 Y71.682 E.02736
G1 X115.874 Y72.064 E.03722
G1 X116.725 Y72.49 E.02984
G1 X117.515 Y73.011 E.02967
G1 X118.411 Y73.797 E.03737
G1 X119.034 Y74.516 E.02983
G1 X119.564 Y75.3 E.02967
G1 X120.091 Y76.369 E.03737
G1 X120.392 Y77.272 E.02984
G1 X120.581 Y78.199 E.02966
G1 X120.659 Y79.389 E.03739
G1 X120.593 Y80.333 E.02967
G1 X120.412 Y81.267 E.02983
G1 X120.029 Y82.395 E.03735
G1 X119.606 Y83.242 E.02968
G1 X119.082 Y84.036 E.02983
G1 X118.296 Y84.932 E.03737
G1 X117.581 Y85.552 E.02967
G1 X116.793 Y86.085 E.02983
G1 X115.725 Y86.612 E.03734
G1 X114.822 Y86.913 E.02984
G1 X113.895 Y87.102 E.02966
G1 X112.705 Y87.18 E.03739
G1 X111.761 Y87.113 E.02967
G1 X110.827 Y86.933 E.02982
G1 X109.698 Y86.55 E.03738
G1 X108.852 Y86.127 E.02966
G1 X108.058 Y85.602 E.02985
G1 X107.162 Y84.816 E.03737
G1 X106.542 Y84.102 E.02965
G1 X106.009 Y83.314 E.02983
G1 X105.482 Y82.245 E.03737
G1 X105.181 Y81.343 E.02981
G1 X104.992 Y80.416 E.02966
G1 X104.914 Y79.226 E.03739
G1 X104.98 Y78.282 E.02967
G1 X105.161 Y77.348 E.02983
G1 X105.544 Y76.219 E.03738
G1 X105.967 Y75.373 E.02966
G1 X106.491 Y74.578 E.02985
G1 X107.14 Y73.839 E.03084
M204 S1000
G1 X107.14 Y73.839 F10800
G1 X107.422 Y74.087
M204 S800
G1 F1200
G1 X107.534 Y73.959 E.00533
G1 X108.216 Y73.365 E.02836
G1 X108.98 Y72.849 E.02891
G1 X109.981 Y72.356 E.03499
G1 X110.855 Y72.064 E.02889
G1 X111.74 Y71.884 E.02832
G1 X113.265 Y71.838 E.04784
G1 X114.664 Y72.05 E.04437
G1 X115.717 Y72.408 E.03487
G1 X116.527 Y72.811 E.02837
G1 X117.296 Y73.319 E.0289
G1 X118.135 Y74.054 E.03497
G1 X118.728 Y74.737 E.02836
G1 X119.244 Y75.501 E.02891
G1 X119.738 Y76.501 E.03497
G1 X120.025 Y77.358 E.02834
G1 X120.209 Y78.262 E.02893
G1 X120.282 Y79.375 E.03497
G1 X120.217 Y80.294 E.02889
G1 X120.045 Y81.182 E.02836
G1 X119.686 Y82.238 E.03497
G1 X119.274 Y83.063 E.02891
G1 X118.775 Y83.817 E.02835
G1 X118.039 Y84.655 E.03497
G1 X117.343 Y85.26 E.02891
G1 X116.593 Y85.765 E.02835
G1 X115.593 Y86.258 E.03496
G1 X114.735 Y86.546 E.02838
G1 X113.832 Y86.73 E.02889
G1 X112.719 Y86.803 E.03497
G1 X111.799 Y86.738 E.02892
G1 X110.912 Y86.565 E.02834
G1 X109.855 Y86.207 E.03499
G1 X109.031 Y85.795 E.02889
G1 X108.277 Y85.295 E.02837
G1 X107.438 Y84.56 E.03497
G1 X106.834 Y83.863 E.02892
G1 X106.329 Y83.114 E.02832
G1 X105.835 Y82.113 E.035
G1 X105.548 Y81.256 E.02834
G1 X105.364 Y80.353 E.02889
G1 X105.291 Y79.239 E.035
G1 X105.356 Y78.32 E.02889
G1 X105.529 Y77.432 E.02837
G1 X105.887 Y76.376 E.03496
G1 X106.299 Y75.551 E.02891
G1 X106.799 Y74.797 E.02837
G1 X107.382 Y74.132 E.02773
M204 S1000
G1 X107.382 Y74.132 F10800
G1 X107.665 Y74.379
M204 S800
G1 F1200
G1 X107.791 Y74.235 E.006
G1 X108.455 Y73.658 E.02758
