; generated by PrusaSlicer 2.8.0 on 2024-11-11 at 20:51:49 UTC


;
;
; 

; external perimeters extrusion width = 0.45mm
; perimeters extrusion width = 0.45mm
; infill extrusion width = 0.45mm
; solid infill extrusion width = 0.45mm
; top infill extrusion width = 0.40mm
; first layer extrusion width = 0.42mm

M73 P0 R9
M73 Q0 S9
M201 X1000 Y1000 Z200 E5000 ; sets maximum accelerations, mm/sec^2
M203 X200 Y200 Z12 E120 ; sets maximum feedrates, mm / sec
M204 S1250 T1250 ; sets acceleration (S) and retract acceleration (R), mm/sec^2
M205 X8.00 Y8.00 Z0.40 E4.50 ; sets the jerk limits, mm/sec
M205 S0 T0 ; sets the minimum extruding and travel feed rate, mm/sec

; printing object hatch-nut.stl id:1 copy 0
; stop printing object hatch-nut.stl id:1 copy 0

;TYPE:Custom
M862.3 P "MK3S" ; printer model check
M862.1 P0.4 ; nozzle diameter check
M115 U3.14.0 ; tell printer latest fw version
G90 ; use absolute coordinates
M83 ; extruder relative mode
M104 S260 ; set extruder temp
M140 S105 ; set bed temp
M190 S105 ; wait for bed temp
M109 S260 ; wait for extruder temp
G28 W ; home all without mesh bed level
G80 X123.393 Y61.1407 W35.2464 H32.6288 ; mesh bed levelling

G1 Z0.2 F720
G1 Y-3 F1000 ; go outside print area
G92 E0
G1 X60 E9 F1000 ; intro line
G1 X100 E12.5 F1000 ; intro line

G92 E0
M221 S95

; Don't change E values below. Excessive value can damage the printer.
M907 E430 ; set extruder motor current
G21 ; set units to millimeters
G90 ; use absolute coordinates
M83 ; use relative distances for extrusion

M900 K0.04 ; Filament gcode LA 1.5
M900 K20 ; Filament gcode LA 1.0




M107
;LAYER_CHANGE
;Z:0.2
;HEIGHT:0.2
G1 E-.8 F2100
M73 P1 R9
M73 Q1 S9
G1 Z.6 F720
G1 X125.336 Y72.363 F10800
G1 Z.2 F720
G1 E.8 F2100
M204 S800
;TYPE:Skirt/Brim
;WIDTH:0.42
G1 F1200
G1 X130.176 Y63.979 E.30353
G1 X131.115 Y63.04 E.04164
G1 X133.482 Y61.673 E.0857
G1 X134.765 Y61.329 E.04165
G1 X147.267 Y61.329 E.39199
G1 X148.55 Y61.673 E.04165
G1 X150.917 Y63.04 E.0857
G1 X151.856 Y63.979 E.04164
G1 X158.107 Y74.806 E.39199
G1 X158.451 Y76.089 E.04165
G1 X158.451 Y78.822 E.08569
G1 X158.107 Y80.104 E.04162
G1 X151.856 Y90.932 E.39202
G1 X150.917 Y91.871 E.04164
G1 X148.55 Y93.237 E.08569
G1 X147.267 Y93.581 E.04165
G1 X134.765 Y93.581 E.39199
G1 X133.482 Y93.237 E.04165
M73 P2 R9
M73 Q2 S9
G1 X131.115 Y91.871 E.08569
G1 X130.176 Y90.932 E.04164
G1 X123.925 Y80.104 E.39202
G1 X123.582 Y78.822 E.04161
G1 X123.582 Y76.089 E.08569
G1 X123.925 Y74.806 E.04164
G1 X125.306 Y72.415 E.08657
M204 S1000
G1 X125.306 Y72.415 F10800
G1 X125.632 Y72.603
M204 S800
G1 F1200
G1 X130.503 Y64.167 E.30543
G1 X131.304 Y63.366 E.03552
M73 P2 R8
G1 X133.671 Y62 E.08569
G1 X134.765 Y61.706 E.03552
G1 X147.267 Y61.706 E.39199
G1 X148.362 Y62 E.03555
G1 X150.728 Y63.366 E.08566
G1 X151.53 Y64.167 E.03554
G1 X157.781 Y74.994 E.39199
G1 X158.074 Y76.089 E.03554
M73 Q2 S8
G1 X158.074 Y78.822 E.08569
G1 X157.781 Y79.916 E.03551
G1 X151.53 Y90.743 E.39199
G1 X150.728 Y91.544 E.03554
G1 X148.362 Y92.911 E.08568
G1 X147.267 Y93.204 E.03554
G1 X134.765 Y93.204 E.39199
G1 X133.671 Y92.911 E.03551
M73 Q3 S8
G1 X131.304 Y91.544 E.0857
G1 X130.503 Y90.743 E.03552
M73 P3 R8
G1 X124.252 Y79.916 E.39199
G1 X123.959 Y78.822 E.03551
G1 X123.959 Y76.089 E.08569
G1 X124.252 Y74.994 E.03554
G1 X125.602 Y72.655 E.08468
M204 S1000
;WIPE_START
G1 F8640
G1 X125.632 Y72.603 E-.01386
G1 X127.334 Y69.655 E-.78614
;WIPE_END
G1 Z.6 F720
G1 X127.746 Y73.893 F10800
G1 Z.2 F720
G1 E.8 F2100
M204 S800
G1 F1200
G1 X132.109 Y66.335 E.27363
G1 X132.882 Y65.435 E.0372
G1 X133.832 Y64.753 E.03667
G1 X135.774 Y64.181 E.06348
G1 X146.274 Y64.188 E.32922
G1 X147.415 Y64.42 E.03651
G1 X148.47 Y64.911 E.03649
G1 X149.827 Y66.198 E.05864
G1 X155.134 Y75.36 E.33198
G1 X155.609 Y77.326 E.06342
G1 X155.493 Y78.489 E.03665
G1 X155.1 Y79.609 E.03722
G1 X149.923 Y88.575 E.32462
G1 X149.15 Y89.475 E.0372
G1 X148.201 Y90.157 E.03664
G1 X146.26 Y90.729 E.06345
G1 X135.772 Y90.729 E.32884
G1 X133.946 Y90.213 E.05949
G1 X132.918 Y89.507 E.0391
G1 X132.109 Y88.575 E.0387
G1 X126.899 Y79.551 E.32671
G1 X126.424 Y77.584 E.06345
M73 P4 R8
M73 Q4 S8
G1 X126.539 Y76.421 E.03664
G1 X126.932 Y75.302 E.03719
G1 X127.716 Y73.945 E.04914
M204 S1000
G1 X127.716 Y73.945 F10800
G1 X128.042 Y74.133
M204 S800
G1 F1200
G1 X132.427 Y66.538 E.27498
G1 X133.121 Y65.728 E.03344
G1 X134.026 Y65.078 E.03494
G1 X135.801 Y64.558 E.05799
G1 X146.254 Y64.565 E.32775
G1 X147.316 Y64.784 E.034
G1 X148.281 Y65.238 E.03344
G1 X149.547 Y66.451 E.05497
G1 X154.794 Y75.525 E.32865
G1 X155.23 Y77.32 E.05792
G1 X155.12 Y78.429 E.03494
G1 X154.765 Y79.435 E.03345
G1 X149.605 Y88.372 E.32357
G1 X148.912 Y89.182 E.03342
G1 X148.007 Y89.832 E.03494
G1 X146.233 Y90.352 E.05796
G1 X135.798 Y90.352 E.32718
G1 X134.081 Y89.859 E.05601
G1 X133.153 Y89.212 E.03547
G1 X132.427 Y88.372 E.03481
G1 X127.239 Y79.385 E.32536
G1 X126.802 Y77.59 E.05792
G1 X126.912 Y76.481 E.03494
G1 X127.267 Y75.475 E.03345
G1 X128.012 Y74.185 E.04671
M204 S1000
G1 X128.012 Y74.185 F10800
G1 X128.339 Y74.374
M204 S800
G1 F1200
G1 X132.745 Y66.742 E.27631
G1 X133.391 Y65.992 E.03104
G1 X134.218 Y65.404 E.03182
G1 X135.827 Y64.935 E.05255
M73 Q5 S8
G1 X146.235 Y64.942 E.32634
G1 X147.176 Y65.135 E.03012
M73 P5 R8
G1 X148.092 Y65.566 E.03174
G1 X149.265 Y66.703 E.05122
G1 X154.454 Y75.691 E.32541
G1 X154.852 Y77.317 E.05249
G1 X154.756 Y78.327 E.03181
G1 X154.429 Y79.262 E.03106
G1 X149.288 Y88.168 E.32243
G1 X148.641 Y88.918 E.03106
G1 X147.815 Y89.506 E.03179
G1 X146.207 Y89.975 E.05252
G1 X135.826 Y89.975 E.32549
G1 X134.218 Y89.506 E.05252
G1 X133.391 Y88.918 E.03182
G1 X132.745 Y88.168 E.03104
G1 X127.579 Y79.22 E.32396
G1 X127.18 Y77.593 E.05253
G1 X127.276 Y76.583 E.03181
G1 X127.603 Y75.648 E.03106
G1 X128.309 Y74.426 E.04425
M204 S1000
G1 X128.309 Y74.426 F10800
G1 X128.636 Y74.614
M204 S800
G1 F1200
G1 X133.062 Y66.947 E.27757
G1 X133.66 Y66.257 E.02863
G1 X134.409 Y65.73 E.02871
G1 X135.854 Y65.312 E.04716
G1 X146.215 Y65.319 E.32486
G1 X147.076 Y65.499 E.02758
G1 X147.902 Y65.893 E.02869
G1 X148.951 Y66.914 E.0459
G1 X154.114 Y75.856 E.32375
G1 X154.474 Y77.315 E.04712
G1 X154.392 Y78.226 E.02868
M73 Q6 S8
G1 X154.094 Y79.089 E.02863
G1 X148.97 Y87.964 E.32132
M73 P6 R8
G1 X148.372 Y88.654 E.02863
G1 X147.624 Y89.18 E.02867
G1 X146.18 Y89.598 E.04713
G1 X135.852 Y89.598 E.32383
G1 X134.409 Y89.18 E.0471
G1 X133.66 Y88.654 E.0287
G1 X133.062 Y87.964 E.02863
G1 X127.918 Y79.054 E.32258
G1 X127.559 Y77.595 E.04711
G1 X127.64 Y76.684 E.02868
G1 X127.939 Y75.821 E.02864
G1 X128.606 Y74.666 E.04182
M204 S1000
G1 X128.606 Y74.666 F10800
G1 X128.932 Y74.855
M204 S800
G1 F1200
G1 X133.38 Y67.151 E.27892
G1 X133.928 Y66.523 E.02613
G1 X134.598 Y66.058 E.02557
G1 X135.88 Y65.69 E.04182
G1 X146.194 Y65.696 E.32339
G1 X146.974 Y65.863 E.02501
G1 X147.71 Y66.219 E.02563
G1 X148.638 Y67.125 E.04066
G1 X153.774 Y76.022 E.3221
G1 X154.096 Y77.315 E.04178
G1 X154.028 Y78.127 E.02555
G1 X153.758 Y78.917 E.02618
G1 X148.653 Y87.759 E.32012
G1 X148.104 Y88.387 E.02615
G1 X147.435 Y88.852 E.02555
G1 X146.154 Y89.221 E.0418
G1 X135.878 Y89.221 E.3222
G1 X134.598 Y88.852 E.04177
G1 X133.928 Y88.387 E.02557
G1 X133.38 Y87.759 E.02613
G1 X128.258 Y78.888 E.32118
G1 X127.937 Y77.595 E.04177
M73 P7 R8
M73 Q7 S8
G1 X128.005 Y76.783 E.02555
G1 X128.275 Y75.993 E.02618
G1 X128.902 Y74.907 E.03932
M204 S1000
G1 X128.902 Y74.907 F10800
G1 X129.229 Y75.095
M204 S800
G1 F1200
G1 X133.697 Y67.355 E.28021
G1 X134.163 Y66.819 E.02227
G1 X134.787 Y66.386 E.02381
G1 X135.905 Y66.067 E.03645
G1 X146.173 Y66.073 E.32195
G1 X146.87 Y66.226 E.02237
G1 X147.516 Y66.543 E.02256
G1 X148.324 Y67.336 E.0355
G1 X153.435 Y76.188 E.32049
G1 X153.717 Y77.315 E.03643
G1 X153.654 Y78.072 E.02382
G1 X153.422 Y78.744 E.02229
G1 X148.335 Y87.555 E.319
G1 X147.869 Y88.091 E.02227
G1 X147.245 Y88.525 E.02383
G1 X146.128 Y88.843 E.03641
G1 X135.904 Y88.843 E.32057
G1 X134.787 Y88.525 E.03641
G1 X134.163 Y88.091 E.02383
G1 X133.697 Y87.555 E.02227
G1 X128.598 Y78.722 E.31979
G1 X128.315 Y77.595 E.03643
G1 X128.378 Y76.838 E.02382
G1 X128.61 Y76.166 E.02229
G1 X129.199 Y75.147 E.0369
M204 S1000
G1 X129.199 Y75.147 F10800
G1 X129.525 Y75.336
M204 S800
G1 F1200
G1 X134.014 Y67.56 E.28152
G1 X134.43 Y67.086 E.01977
G1 X134.974 Y66.714 E.02066
G1 X135.931 Y66.444 E.03118
G1 X146.152 Y66.45 E.32047
G1 X146.763 Y66.589 E.01965
M73 P8 R8
M73 Q8 S8
G1 X147.32 Y66.867 E.01952
G1 X148.01 Y67.546 E.03035
G1 X153.095 Y76.354 E.31889
G1 X153.339 Y77.318 E.03118
G1 X153.289 Y77.974 E.02063
G1 X153.086 Y78.572 E.0198
G1 X148.018 Y87.35 E.31781
G1 X147.602 Y87.824 E.01977
G1 X147.059 Y88.196 E.02064
G1 X146.102 Y88.466 E.03118
G1 X135.93 Y88.466 E.31894
G1 X134.974 Y88.196 E.03115
G1 X134.43 Y87.824 E.02066
G1 X134.014 Y87.35 E.01977
G1 X128.937 Y78.556 E.31838
G1 X128.693 Y77.592 E.03118
G1 X128.743 Y76.936 E.02063
G1 X128.946 Y76.339 E.01977
G1 X129.495 Y75.388 E.03443
M204 S1000
G1 X129.495 Y75.388 F10800
G1 X129.822 Y75.576
M204 S800
G1 F1200
G1 X134.331 Y67.766 E.28276
G1 X134.695 Y67.355 E.01721
G1 X135.158 Y67.045 E.01747
G1 X135.956 Y66.821 E.02599
G1 X146.129 Y66.827 E.31897
G1 X146.654 Y66.95 E.01691
G1 X147.122 Y67.189 E.01648
G1 X147.696 Y67.756 E.0253
G1 X152.756 Y76.52 E.3173
G1 X152.961 Y77.323 E.02599
G1 X152.923 Y77.879 E.01747
G1 X152.75 Y78.4 E.01721
G1 X147.701 Y87.144 E.31659
G1 X147.337 Y87.555 E.01721
G1 X146.874 Y87.866 E.01749
G1 X146.077 Y88.089 E.02595
G1 X135.956 Y88.089 E.31734
G1 X135.158 Y87.866 E.02598
M73 P9 R8
M73 Q9 S8
G1 X134.695 Y87.555 E.01749
G1 X134.331 Y87.144 E.01721
G1 X129.277 Y78.39 E.31694
G1 X129.071 Y77.587 E.02599
G1 X129.109 Y77.031 E.01747
G1 X129.283 Y76.51 E.01722
G1 X129.792 Y75.628 E.03193
M204 S1000
G1 X129.792 Y75.628 F10800
G1 X130.118 Y75.817
M204 S800
G1 F1200
G1 X134.647 Y67.972 E.28402
G1 X134.958 Y67.627 E.01456
G1 X135.339 Y67.376 E.01431
G1 X135.982 Y67.198 E.02092
G1 X146.106 Y67.204 E.31743
G1 X146.541 Y67.31 E.01404
G1 X146.921 Y67.509 E.01345
G1 X147.382 Y67.966 E.02035
G1 X152.417 Y76.687 E.31574
G1 X152.583 Y77.332 E.02088
G1 X152.557 Y77.787 E.01429
G1 X152.413 Y78.229 E.01458
G1 X147.385 Y86.938 E.31531
G1 X147.074 Y87.284 E.01459
G1 X146.693 Y87.534 E.01429
G1 X146.051 Y87.712 E.02089
G1 X135.981 Y87.712 E.31574
G1 X135.339 Y87.534 E.02089
G1 X134.958 Y87.284 E.01429
G1 X134.647 Y86.938 E.01459
G1 X129.616 Y78.223 E.31552
G1 X129.449 Y77.578 E.02089
G1 X129.475 Y77.123 E.01429
G1 X129.619 Y76.681 E.01458
G1 X130.088 Y75.869 E.0294
M204 S1000
G1 X130.088 Y75.869 F10800
G1 X130.415 Y76.057
M204 S800
G1 F1200
G1 X134.963 Y68.179 E.28522
G1 X135.517 Y67.71 E.02276
G1 X136.007 Y67.575 E.01594
G1 X146.081 Y67.582 E.31586
G1 X146.718 Y67.828 E.02141
G1 X147.068 Y68.176 E.01548
G1 X152.078 Y76.854 E.31418
G1 X152.205 Y77.345 E.0159
M73 P10 R8
M73 Q10 S8
G1 X152.076 Y78.059 E.02275
G1 X147.069 Y86.731 E.31397
G1 X146.515 Y87.2 E.02276
G1 X146.026 Y87.335 E.01591
G1 X136.006 Y87.335 E.31417
G1 X135.517 Y87.2 E.01591
G1 X134.963 Y86.731 E.02276
G1 X129.955 Y78.056 E.31407
G1 X129.827 Y77.565 E.01591
G1 X129.957 Y76.851 E.02276
G1 X130.385 Y76.109 E.02686
M204 S1000
G1 X130.385 Y76.109 F10800
G1 X130.711 Y76.298
M204 S800
G1 F1200
G1 X135.28 Y68.385 E.2865
G1 X135.696 Y68.043 E.01689
G1 X136.031 Y67.952 E.01088
G1 X146.053 Y67.959 E.31423
G1 X146.511 Y68.144 E.01549
G1 X146.753 Y68.386 E.01073
G1 X151.739 Y77.021 E.31264
G1 X151.827 Y77.357 E.01089
G1 X151.74 Y77.888 E.01687
G1 X146.752 Y86.526 E.31275
G1 X146.337 Y86.867 E.01684
G1 X146.001 Y86.958 E.01091
G1 X136.031 Y86.958 E.3126
G1 X135.696 Y86.867 E.01088
G1 X135.28 Y86.526 E.01687
G1 X130.294 Y77.889 E.31269
G1 X130.205 Y77.553 E.0109
G1 X130.293 Y77.023 E.01685
G1 X130.681 Y76.35 E.02436
M204 S1000
G1 X130.681 Y76.35 F10800
M73 P11 R8
M73 Q11 S8
G1 X131.008 Y76.538
M204 S800
G1 F1200
G1 X135.595 Y68.593 E.28765
G1 X136.055 Y68.329 E.01663
G1 X146.165 Y68.379 E.317
G1 X146.439 Y68.596 E.01096
G1 X151.4 Y77.188 E.31108
G1 X151.401 Y77.719 E.01665
G1 X146.437 Y86.317 E.31129
G1 X146.165 Y86.531 E.01085
G1 X145.977 Y86.581 E.0061
G1 X135.867 Y86.531 E.317
G1 X135.595 Y86.317 E.01085
G1 X130.633 Y77.722 E.31118
G1 X130.631 Y77.191 E.01665
G1 X130.978 Y76.59 E.02176
M204 S1000
G1 X131.305 Y76.779 F10800
M204 S800
G1 F1200
G1 X135.908 Y68.806 E.28866
G1 X136.032 Y68.719 E.00475
G1 X146 Y68.719 E.31254
G1 X146.125 Y68.806 E.00478
G1 X151.061 Y77.356 E.30955
G1 X151.061 Y77.555 E.00624
G1 X146.125 Y86.104 E.30952
G1 X146 Y86.191 E.00478
G1 X136.032 Y86.191 E.31254
G1 X135.908 Y86.104 E.00475
M73 P12 R8
M73 Q12 S8
G1 X130.971 Y77.555 E.30953
G1 X130.971 Y77.356 E.00624
G1 X131.275 Y76.831 E.01902
M204 S1000
;WIPE_START
G1 F8640
G1 X131.305 Y76.779 E-.01386
G1 X133.007 Y73.83 E-.78614
;WIPE_END
G1 Z.6 F720
; printing object hatch-nut.stl id:1 copy 0
G1 X145.909 Y82.381 F10800
G1 Z.2 F720
G1 E.8 F2100
M204 S800
;TYPE:Perimeter
;WIDTH:0.419999
G1 F1200
G1 X145.434 Y82.753 E.01892
G1 X144.875 Y83.109 E.02078
G1 X144.288 Y83.408 E.02066
G1 X143.679 Y83.646 E.0205
G1 X143.056 Y83.823 E.02031
G1 X142.423 Y83.938 E.02017
G1 X141.787 Y83.99 E.02001
G1 X141.154 Y83.981 E.01985
G1 X140.53 Y83.911 E.01969
G1 X139.921 Y83.783 E.01951
G1 X139.332 Y83.596 E.01938
G1 X138.768 Y83.359 E.01918
G1 X138.075 Y83.012 E.0243
G1 X137.576 Y82.717 E.01818
G1 X137.087 Y82.363 E.01893
G1 X136.634 Y81.963 E.01895
G1 X136.222 Y81.521 E.01895
G1 X135.854 Y81.043 E.01891
G1 X135.533 Y80.531 E.01895
G1 X135.263 Y79.99 E.01896
G1 X135.046 Y79.426 E.01895
G1 X134.885 Y78.844 E.01893
G1 X134.78 Y78.249 E.01894
G1 X134.732 Y77.647 E.01894
G1 X134.743 Y77.043 E.01894
G1 X134.812 Y76.443 E.01894
G1 X134.937 Y75.852 E.01894
G1 X135.267 Y74.866 E.0326
G1 X135.54 Y74.218 E.02205
G1 X135.835 Y73.673 E.01943
G1 X136.183 Y73.157 E.01951
G1 X136.583 Y72.673 E.01969
G1 X137.032 Y72.227 E.01984
G1 X137.525 Y71.822 E.02
G1 X138.06 Y71.465 E.02017
G1 X138.631 Y71.159 E.02031
G1 X139.233 Y70.908 E.02045
G1 X139.863 Y70.714 E.02067
G1 X140.513 Y70.582 E.0208
G1 X141.177 Y70.512 E.02093
G1 X141.85 Y70.507 E.0211
G1 X142.526 Y70.568 E.02128
G1 X143.198 Y70.695 E.02144
G1 X143.859 Y70.887 E.02158
G1 X144.503 Y71.144 E.02174
G1 X145.123 Y71.465 E.02189
G1 X145.714 Y71.847 E.02206
G1 X146.271 Y72.29 E.02231
;WIDTH:0.456492
G1 X146.541 Y72.538 E.01261
;WIDTH:0.492985
G1 X146.812 Y72.787 E.01377
G1 X147.248 Y73.379 E.02751
;WIDTH:0.461533
G1 X147.689 Y74.135 E.03046
;WIDTH:0.484287
G1 X147.944 Y74.653 E.02119
G1 X148.047 Y75.001 E.01332
;WIDTH:0.452143
G1 X148.15 Y75.349 E.01235
;WIDTH:0.419999
G1 X148.311 Y76.054 E.02267
G1 X148.393 Y76.774 E.02272
G1 X148.39 Y77.447 E.0211
G1 X148.298 Y78.227 E.02463
G1 X148.137 Y78.913 E.02209
G1 X147.914 Y79.575 E.0219
G1 X147.629 Y80.208 E.02177
G1 X147.287 Y80.806 E.0216
G1 X146.892 Y81.364 E.02144
G1 X146.448 Y81.877 E.02127
G1 X145.96 Y82.341 E.02111
G1 X145.956 Y82.344 E.00016
M204 S1000
G1 X145.956 Y82.344 F10800
G1 X145.679 Y82.085
M204 S800
;TYPE:External perimeter
G1 F1200
G1 X145.203 Y82.455 E.0189
G1 X144.673 Y82.79 E.01966
G1 X144.118 Y83.071 E.0195
G1 X143.543 Y83.294 E.01934
G1 X142.954 Y83.46 E.01919
G1 X142.357 Y83.566 E.01901
G1 X141.758 Y83.614 E.01884
G1 X141.161 Y83.604 E.01872
G1 X140.574 Y83.537 E.01852
G1 X140 Y83.414 E.01841
G1 X139.448 Y83.237 E.01818
G1 X138.916 Y83.012 E.01811
G1 X138.244 Y82.675 E.02357
G1 X137.768 Y82.393 E.01735
G1 X137.31 Y82.058 E.01779
G1 X136.885 Y81.681 E.01781
G1 X136.498 Y81.265 E.01781
G1 X136.153 Y80.814 E.0178
G1 X135.854 Y80.332 E.01778
G1 X135.601 Y79.823 E.01782
G1 X135.399 Y79.292 E.01781
G1 X135.249 Y78.745 E.01778
G1 X135.151 Y78.185 E.01783
G1 X135.108 Y77.619 E.0178
G1 X135.12 Y77.051 E.01781
G1 X135.186 Y76.487 E.0178
G1 X135.306 Y75.932 E.0178
G1 X135.624 Y74.987 E.03126
G1 X135.887 Y74.365 E.02117
G1 X136.166 Y73.854 E.01825
G1 X136.495 Y73.369 E.01838
G1 X136.873 Y72.914 E.01855
G1 X137.296 Y72.495 E.01867
G1 X137.763 Y72.115 E.01888
G1 X138.268 Y71.78 E.019
G1 X138.808 Y71.492 E.01919
G1 X139.377 Y71.256 E.01931
G1 X139.972 Y71.075 E.0195
G1 X140.586 Y70.951 E.01964
